!!!!SEGMENT: pl-cz--iii-751--001_zebrowski-marcin-jozef--sonata-pro-processione-in-es.krn
!!!cenid: 17xx:2368
!!!COM: Żebrowski, Marcin Józef
!!!COM-rismID:
!!!CDT: 1702-1770/06/29
!!!CNT: Polish
!!!OTL: Sonata pro processione in Es
!!!PDT:
!!!AGN:
!!!SMS-siglum: PL-CZ
!!!SMS-shelfmark: III-751
!!!SMS-shelfwork: 001 W
!!!SMS-variant:
!!!SMS-altvar:
!!!NIFC-rismSourceID: 300033530
!!!NIFC-islandoraID: pl-cz:25462
!!!URL-pdf-islandora: https://repozytorium.nifc.pl/islandora/object/pl-cz%3A25462/datastream/PDF/view
!!!URL-scan: https://polish.musicsources.pl/pl/lokalizacje/galeria/rekopisy/1482 @EN{Scan on Polish Music Herritage in Open Access Website} @PL{Skany w portalu Dziedzictwo Muzyki Polskiej w otwartym dostępie}
!!!ONB-nifc: UWAGA: w zbiorze 1. Sonata pro processione 001 (Adagio 1), 2. Sonata pro processione 002 (Adagio 2)
!!!AIN: 1 clars 4 clrno 2 oboe 2 organ 1 timpa 1 viole 2 violn
!!!key: E-
**kern	**fba	**kern	**kern	**kern	**kern	**kern	**kern	**fba	**dynam	**kern	**dynam	**kern	**dynam	**kern	**kern	**kern	**dynam	**kern	**dynam
*part13	*part13	*part12	*part11	*part10	*part9	*part8	*part7	*part7	*part7	*part6	*part6	*part5	*part5	*part4	*part3	*part2	*part2	*part1	*part1
*staff13	*	*staff12	*staff11	*staff10	*staff9	*staff8	*staff7	*	*	*staff6	*	*staff5	*	*staff4	*staff3	*staff2	*	*staff1	*
*Iorgan	*	*Itimpa	*Iclrno	*Iclrno	*Iclars	*clars	*Iorgan&Iviole	*	*	*Ivioln	*	*Ivioln	*	*Iclrno	*Iclrno	*Ioboe	*	*Ioboe	*
*I"Organo. Chorus 2dus	*	*I"Tympano.	*I"Clarino Secondo in Es Chorus 2dus	*I"Clarino Primo in Es Chorus 2dus	*I"Clarinetto Secondo Chorus 2dus.	*I"Clarinetto Primo. Chorus 2dus.	*I"Organo. Violone	*	*	*I"Violino Secundo. Chorus Primous	*	*I"Violino Primo. Chorus Primus	*	*I"Clarino Secondo in Es Chorus 1mus.	*I"Clarino Primo in Es. Chorus 1mus	*I"Hoboe Secundo Chorus Primous	*	*I"Hoboe Primo. Chorus Primus	*
*I'Org.	*	*I'Timp.	*I'Clno II	*I'Clno I in Es	*I'Cl II	*I'Cl I	*I'Org.	*	*	*I'Vn II	*	*I'Vn I	*	*I'Cl II in Es	*I'Cl. I in Es	*I'Ob. II	*	*I'Ob. I	*
*ICklav	*	*ICidio	*ICbras	*ICbras	*ICww	*ICww	*ICklav&ICstr	*	*	*ICstr	*	*ICstr	*	*ICbras	*ICbras	*ICww	*	*ICww	*
*clefF4	*	*clefF4	*clefG2	*clefG2	*clefG2	*clefG2	*clefF4	*	*	*clefG2	*	*clefG2	*	*clefG2	*clefG2	*clefG2	*	*clefG2	*
*	*	*ITrd-2c-3	*ITrd-2c-3	*ITrd-2c-3	*ITrd1c2	*ITrd1c2	*	*	*	*	*	*	*	*ITrd-2c-3	*ITrd-2c-3	*	*	*	*
*k[e-b-a-]	*	*k[b-e-a-]	*k[b-e-a-]	*k[b-e-a-]	*k[b-e-a-]	*k[b-e-a-]	*k[b-e-a-]	*	*	*k[b-e-a-]	*	*k[b-e-a-]	*	*k[b-e-a-]	*k[b-e-a-]	*k[b-e-a-]	*	*k[b-e-a-]	*
*E-:	*	*E-:	*E-:	*E-:	*E-:	*E-:	*E-:	*	*	*E-:	*	*E-:	*	*E-:	*E-:	*E-:	*	*E-:	*
*M2/2	*	*M2/2	*M2/2	*M2/2	*M2/2	*M2/2	*M2/2	*	*	*M2/2	*	*M2/2	*	*M2/2	*M2/2	*M2/2	*	*M2/2	*
*met(c|)	*	*met(c|)	*met(c|)	*met(c|)	*met(c|)	*met(c|)	*met(c|)	*	*	*met(c|)	*	*met(c|)	*	*met(c|)	*met(c|)	*met(c|)	*	*met(c|)	*
=1	=1	=1	=1	=1	=1	=1	=1	=1	=1	=1	=1	=1	=1	=1	=1	=1	=1	=1	=1
!	!	!	!	!	!	!	!	!	!	!	!	!	!	!	!	!	!	!LO:SIC:v:t=Kolejność instrumentów ustalona z Jackiem Iwaszko	!
!	!	!	!LO:TX:a:t=1	!LO:TX:a:t=1	!LO:TX:a:t=1	!LO:TX:a:t=1	!LO:TX:b:i:t=Solo	!	!	!	!	!LO:TX:a:t=Chorus Primus.	!	!	!	!	!	!LO:TX:a:rj:t=Chorus Primus	!
!LO:TX:a:rj:t=Adagio	!	!LO:TX:a:rj:t=Adagio	!LO:TX:a:rj:t=Adagio	!LO:TX:a:rj:t=Adagio	!LO:TX:a:rj:t=Adagio	!LO:TX:a:rj:t=Adagio	!LO:TX:a:rj:t=Adagio horus Primus	!	!	!LO:TX:a:t=1 Adagio	!	!LO:TX:a:rj:t=1 Adagio	!	!LO:TX:a:rj:t=Adagio	!LO:TX:a:rj:t=Adagio	!LO:TX:a:rj:t=Adagio. Chorus Primous	!	!LO:TX:a:rj:t=Adagio	!
1r	.	2E-/	1r	1r	1r	1r	8r	.	.	4B-/	.	4G/ 4e-/	.	4g/	4ee-\	[1g/	.	[1ee-\	.
!	!	!	!	!	!	!	!LO:TX:a:t=|	!	!	!	!	!	!	!	!	!	!	!	!
.	.	.	.	.	.	.	8E-\L	.	.	.	.	.	.	.	.	.	.	.	.
!	!	!	!	!	!	!	!LO:TX:a:t=|	!	!	!	!	!	!	!	!	!	!	!	!
.	.	.	.	.	.	.	8D\	.	.	8.B-/L	.	8.G/L 8.e-/	.	8.g/L	8.ee-\L	.	.	.	.
!	!	!	!	!	!	!	!LO:TX:a:t=|	!	!	!	!	!	!	!	!	!	!	!	!
.	.	.	.	.	.	.	8E-\J	.	.	.	.	.	.	.	.	.	.	.	.
.	.	.	.	.	.	.	.	.	.	16B-/Jk	.	16G/Jk 16e-/	.	16g/Jk	16ee-\Jk	.	.	.	.
!	!	!	!	!	!	!	!LO:TX:a:t=|	!	!	!	!	!	!	!	!	!	!	!	!
.	.	4.E-/	.	.	.	.	8BB-\L	.	.	4B-/	.	4G/ 4e-/	.	4g/	4ee-\	.	.	.	.
!	!	!	!	!	!	!	!LO:TX:a:t=|	!	!	!	!	!	!	!	!	!	!	!	!
.	.	.	.	.	.	.	8E-\	.	.	.	.	.	.	.	.	.	.	.	.
!	!	!	!	!	!	!	!LO:TX:a:t=|	!	!	!	!	!	!	!	!	!	!	!	!
.	.	.	.	.	.	.	8GG\	.	.	4B-/	.	4G/ 4e-/	.	4g/	4ee-\	.	.	.	.
!	!	!	!	!	!	!	!LO:TX:a:t=|	!	!	!	!	!	!	!	!	!	!	!	!
.	.	8E-/	.	.	.	.	8BB-\J	.	.	.	.	.	.	.	.	.	.	.	.
=2	=2	=2	=2	=2	=2	=2	=2	=2	=2	=2	=2	=2	=2	=2	=2	=2	=2	=2	=2
*	*	*	*	*	*	*	*	*	*	*	*	*	*	*	*2\right	*	*	*2\right	*
8r	.	2E-/	4g/	4ee-\	4g\	4ee-\	2EE-/	.	.	2B-/	.	2Gt/ 2e-t/	.	2g/	2ee-\	2g/]	.	2ee-\]	.
8E-\L	.	.	.	.	.	.	.	.	.	.	.	.	.	.	.	.	.	.	.
8D\	.	.	8.g/L	8.ee-\L	8.g\L	8.ee-\L	.	.	.	.	.	.	.	.	.	.	.	.	.
8E-\J	.	.	.	.	.	.	.	.	.	.	.	.	.	.	.	.	.	.	.
.	.	.	16g/Jk	16ee-\Jk	16g\Jk	16ee-\Jk	.	.	.	.	.	.	.	.	.	.	.	.	.
8BB-/L	.	2r	4g/	4ee-\	4g\	4ee-\	2r	.	.	2r	.	2r	.	2r	2r	2r	.	2r	.
8E-/	.	.	.	.	.	.	.	.	.	.	.	.	.	.	.	.	.	.	.
8GG/	.	.	4g/	4ee-\	4g\	4ee-\	.	.	.	.	.	.	.	.	.	.	.	.	.
8BB-/J	.	.	.	.	.	.	.	.	.	.	.	.	.	.	.	.	.	.	.
=3	=3	=3	=3	=3	=3	=3	=3	=3	=3	=3	=3	=3	=3	=3	=3	=3	=3	=3	=3
*	*	*	*	*2\right	*2\right	*2\right	*	*	*	*	*	*	*	*	*	*	*	*	*
2EE-/	.	2E-/	2g/	2ee-\	2g\	2ee-\	8r	.	.	4G/ 4e-/	.	4B-/ 4g/	.	4ee-\	4gg\	[1ee-\	.	[1gg\	.
!	!	!	!	!	!	!	!LO:TX:a:t=|	!	!	!	!	!	!	!	!	!	!	!	!
.	.	.	.	.	.	.	8E-\L	.	.	.	.	.	.	.	.	.	.	.	.
!	!	!	!	!	!	!	!LO:TX:a:t=|	!	!	!	!	!	!	!	!	!	!	!	!
.	.	.	.	.	.	.	8D\	.	.	8.G/L 8.e-/	.	8.B-/L 8.g/	.	8.ee-\L	8.gg\L	.	.	.	.
!	!	!	!	!	!	!	!LO:TX:a:t=|	!	!	!	!	!	!	!	!	!	!	!	!
.	.	.	.	.	.	.	8E-\J	.	.	.	.	.	.	.	.	.	.	.	.
.	.	.	.	.	.	.	.	.	.	16G/Jk 16e-/	.	16B-/Jk 16g/	.	16ee-\Jk	16gg\Jk	.	.	.	.
!	!	!	!	!	!	!	!LO:TX:a:t=|	!	!	!	!	!	!	!	!	!	!	!	!
2r	.	4.E-/	2r	2r	2r	2r	8BB-\L	.	.	4G/ 4e-/	.	4B-/ 4g/	.	4ee-\	4gg\	.	.	.	.
!	!	!	!	!	!	!	!LO:TX:a:t=|	!	!	!	!	!	!	!	!	!	!	!	!
.	.	.	.	.	.	.	8E-\	.	.	.	.	.	.	.	.	.	.	.	.
!	!	!	!	!	!	!	!LO:TX:a:t=|	!	!	!	!	!	!	!	!	!	!	!	!
.	.	.	.	.	.	.	8GG\	.	.	4G/ 4e-/	.	4B-/ 4g/	.	4ee-\	4gg\	.	.	.	.
!	!	!	!	!	!	!	!LO:TX:a:t=|	!	!	!	!	!	!	!	!	!	!	!	!
.	.	8E-/	.	.	.	.	8BB-\J	.	.	.	.	.	.	.	.	.	.	.	.
=4	=4	=4	=4	=4	=4	=4	=4	=4	=4	=4	=4	=4	=4	=4	=4	=4	=4	=4	=4
*	*	*	*	*	*	*	*	*	*	*	*	*	*	*2\right	*	*2\right	*	*	*
8r	.	2E-/	4ee-\	4gg\	4ee-\	4gg\	2EE-/	.	.	2G/ 2e-/	.	2B-T/ 2gT/	.	2ee-\	2gg\	2ee-\]	.	2gg\]	.
8E-\L	.	.	.	.	.	.	.	.	.	.	.	.	.	.	.	.	.	.	.
8D\	.	.	8.ee-\L	8.gg\L	8.ee-\L	8.gg\L	.	.	.	.	.	.	.	.	.	.	.	.	.
8E-\J	.	.	.	.	.	.	.	.	.	.	.	.	.	.	.	.	.	.	.
.	.	.	16ee-\Jk	16gg\Jk	16ee-\Jk	16gg\Jk	.	.	.	.	.	.	.	.	.	.	.	.	.
8BB-/L	.	2r	4ee-\	4gg\	4ee-\	4gg\	2r	.	.	2r	.	2r	.	2r	2r	2r	.	2r	.
8E-/	.	.	.	.	.	.	.	.	.	.	.	.	.	.	.	.	.	.	.
8GG/	.	.	4ee-\	4gg\	4ee-\	4gg\	.	.	.	.	.	.	.	.	.	.	.	.	.
8BB-/J	.	.	.	.	.	.	.	.	.	.	.	.	.	.	.	.	.	.	.
!LO:LB:g=original	!	!	!	!	!	!	!	!	!	!	!	!	!	!	!	!	!	!	!
=5	=5	=5	=5	=5	=5	=5	=5	=5	=5	=5	=5	=5	=5	=5	=5	=5	=5	=5	=5
*	*	*	*	*	*	*	*	*	*	*	*	*^	*	*	*	*	*	*	*
*	*	*	*2\right	*	*	*	*	*	*	*	*	*	*	*	*	*	*	*	*	*
2EE-/	.	2E-/	2ee-\	2gg\	2ee-\	2gg\	8r	.	.	4B-/ 4g/	.	4b-/	4g\	.	4gg\	4bb-\	[1gg\	.	[1bb-\	.
!	!	!	!	!	!	!	!LO:TX:a:t=|	!	!	!	!	!	!	!	!	!	!	!	!	!
.	.	.	.	.	.	.	8E-\L	.	.	.	.	.	.	.	.	.	.	.	.	.
!	!	!	!	!	!	!	!LO:TX:a:t=|	!	!	!	!	!	!	!	!	!	!	!	!	!
.	.	.	.	.	.	.	8D\	.	.	8.B-/L 8.g/	.	8.b-/L	8.g\L	.	8.gg\L	8.bb-\L	.	.	.	.
!	!	!	!	!	!	!	!LO:TX:a:t=|	!	!	!	!	!	!	!	!	!	!	!	!	!
.	.	.	.	.	.	.	8E-\J	.	.	.	.	.	.	.	.	.	.	.	.	.
.	.	.	.	.	.	.	.	.	.	16B-/Jk 16g/	.	16b-/Jk	16g\Jk	.	16gg\Jk	16bb-\Jk	.	.	.	.
!	!	!	!	!	!	!	!	!	!	!	!	!	!	!	!LO:LB:g=original	!LO:LB:g=original	!	!	!	!
2r	.	4.E-/	2r	2r	2r	2r	8BB-\L	6 4	.	4B-/ 4g/	.	4b-/	4g\	.	4gg\	4bb-\	.	.	.	.
.	.	.	.	.	.	.	8E-\	.	.	.	.	.	.	.	.	.	.	.	.	.
.	.	.	.	.	.	.	8GG\	.	.	4B-/ 4g/	.	4b-/	4g\	.	4gg\	4bb-\	.	.	.	.
.	.	8E-/	.	.	.	.	8BB-\J	.	.	.	.	.	.	.	.	.	.	.	.	.
!	!	!	!	!LO:LB:g=original	!	!	!	!	!	!	!	!	!	!	!	!	!	!	!	!
=6	=6	=6	=6	=6	=6	=6	=6	=6	=6	=6	=6	=6	=6	=6	=6	=6	=6	=6	=6	=6
*	*	*	*	*	*	*	*	*	*	*	*	*	*2\right	*	*	*	*	*	*	*
8r	.	2E-/	4gg\	4bb-\	4gg\	4bb-\	2EE-/	.	.	2B-/ 2g/	.	2b-T/	2gt>\	.	2gg\	2bb-\	2gg\]	.	2bb-\]	.
8e-\L	.	.	.	.	.	.	.	.	.	.	.	.	.	.	.	.	.	.	.	.
8d\	.	.	8.gg\L	8.bb-\L	8.gg\L	8.bb-\L	.	.	.	.	.	.	.	.	.	.	.	.	.	.
8e-\J	.	.	.	.	.	.	.	.	.	.	.	.	.	.	.	.	.	.	.	.
.	.	.	16gg\Jk	16bb-\Jk	16gg\Jk	16bb-\Jk	.	.	.	.	.	.	.	.	.	.	.	.	.	.
!	!	!	!LO:LB:g=original	!	!LO:LB:g=original	!	!	!	!	!	!	!	!	!	!	!	!	!	!	!
8B-\L	.	2r	4gg\	4bb-\	4gg\	4bb-\	2r	.	.	2r	.	2r	2ryy	.	2r	2r	2r	.	2r	.
8e-\	.	.	.	.	.	.	.	.	.	.	.	.	.	.	.	.	.	.	.	.
8G\	.	.	4gg\	4bb-\	4gg\	4bb-\	.	.	.	.	.	.	.	.	.	.	.	.	.	.
8B-\J	.	.	.	.	.	.	.	.	.	.	.	.	.	.	.	.	.	.	.	.
*	*	*	*	*	*	*	*	*	*	*	*	*v	*v	*	*	*	*	*	*	*
!	!	!LO:LB:g=original	!	!	!	!LO:LB:g=original	!LO:LB:g=original	!	!	!	!	!	!	!	!	!	!	!	!
=7	=7	=7	=7	=7	=7	=7	=7	=7	=7	=7	=7	=7	=7	=7	=7	=7	=7	=7	=7
!	!	!	!	!	!	!	!LO:TX:a:t=|	!	!	!	!	!	!	!	!	!	!	!	!
4E-\	5 3	4E-/	4e-/	2gg\	1ee-\	1gg\	4E-\	.	.	8B-/ 8g/	.	(16e-T/LL	.	4e-/	2gg\	1b-\	.	1gg\	.
.	.	.	.	.	.	.	.	.	.	.	.	16d/	.	.	.	.	.	.	.
.	.	.	.	.	.	.	.	.	.	4B-/ 4g/	.	16e-/)	.	.	.	.	.	.	.
!	!	!	!	!	!	!	!	!	!	!	!	!LO:TX:b:t=|	!	!	!	!	!	!	!
.	.	.	.	.	.	.	.	.	.	.	.	16B-/JJ	.	.	.	.	.	.	.
!	!	!	!	!	!	!	!	!	!	!	!	!LO:LB:g=original	!	!	!	!	!	!	!
!	!	!	!	!	!	!	!LO:TX:a:t=|	!	!	!	!	!	!	!	!	!	!	!	!
8E-\L	.	4r	8ee-\L	.	.	.	4E-\	.	.	.	.	(16G/LL	.	8ee-\L	.	.	.	.	.
.	.	.	.	.	.	.	.	.	.	.	.	16B-/)	.	.	.	.	.	.	.
!	!	!	!	!	!	!	!	!	!	!	!	!LO:TX:b:t=|	!	!	!	!	!	!	!
8E-\J	_ _	.	8ee-\J	.	.	.	.	.	.	4B-/ 4g/	.	16e-/	.	8ee-\J	.	.	.	.	.
!	!	!	!	!	!	!	!	!	!	!	!	!LO:TX:b:t=|	!	!	!	!	!	!	!
.	.	.	.	.	.	.	.	.	.	.	.	16g/JJ	.	.	.	.	.	.	.
!	!	!	!	!	!	!	!LO:TX:a:t=|	!	!	!	!	!	!	!	!	!	!	!	!
4E-\	.	4E-/	4ee-\	2gg\	.	.	4E-\	.	.	.	.	(16B-/LL	.	4ee-\	2gg\	.	.	.	.
.	x	.	.	.	.	.	.	.	.	.	.	16e-/)	.	.	.	.	.	.	.
!	!	!	!	!	!	!	!	!	!	!LO:LB:g=original	!	!	!	!	!	!	!	!	!
!	!	!	!	!	!	!	!	!	!	!	!	!LO:TX:b:t=|	!	!	!	!	!	!	!
.	.	.	.	.	.	.	.	.	.	4B-/ 4g/	.	16g/	.	.	.	.	.	.	.
!	!	!	!	!	!	!	!	!	!	!	!	!LO:TX:b:t=|	!	!	!	!	!	!	!
.	.	.	.	.	.	.	.	.	.	.	.	16b-/JJ	.	.	.	.	.	.	.
!	!	!	!	!	!	!	!LO:TX:a:t=|	!	!	!	!	!	!	!	!	!	!	!	!
4E-\	.	4r	4ee-\	.	.	.	4E-\	.	.	.	.	(16e-/LL	.	4ee-\	.	.	.	.	.
.	.	.	.	.	.	.	.	.	.	.	.	16g/)	.	.	.	.	.	.	.
!	!	!	!	!	!	!	!	!	!	!	!	!LO:TX:b:t=|	!	!	!	!	!	!	!
.	.	.	.	.	.	.	.	.	.	8B-/ 8g/	.	16b-/	.	.	.	.	.	.	.
!	!	!	!	!	!	!	!	!	!	!	!	!LO:TX:b:t=|	!	!	!	!	!	!	!
.	.	.	.	.	.	.	.	.	.	.	.	16ee-/JJ	.	.	.	.	.	.	.
=8	=8	=8	=8	=8	=8	=8	=8	=8	=8	=8	=8	=8	=8	=8	=8	=8	=8	=8	=8
4E-\	6 4	4E-/	4e-/	2aa-\	1ee-\	1aa-\	4E-\	6 4	.	8c/ 8a-/	.	(16e-T/LL	.	4e-/	2aa-\	1cc\	.	1aa-\	.
.	.	.	.	.	.	.	.	.	.	.	.	16d/)	.	.	.	.	.	.	.
.	.	.	.	.	.	.	.	.	.	4c/ 4a-/	.	16e-/	.	.	.	.	.	.	.
!	!	!	!	!	!	!	!	!	!	!	!	!LO:TX:b:t=|	!	!	!	!	!	!	!
.	.	.	.	.	.	.	.	.	.	.	.	16c/JJ	.	.	.	.	.	.	.
8E-\L	.	4r	8ee-\L	.	.	.	4E-\	.	.	.	.	(16A-/LL	.	8ee-\L	.	.	.	.	.
.	.	.	.	.	.	.	.	.	.	.	.	16c/)	.	.	.	.	.	.	.
!	!	!	!	!	!	!	!	!	!	!	!	!LO:TX:b:t=|	!	!	!	!	!	!	!
8E-\J	_ _	.	8ee-\J	.	.	.	.	.	.	4c/ 4a-/	.	16e-/	.	8ee-\J	.	.	.	.	.
!	!	!	!	!	!	!	!	!	!	!	!	!LO:TX:b:t=|	!	!	!	!	!	!	!
.	.	.	.	.	.	.	.	.	.	.	.	16a-/JJ	.	.	.	.	.	.	.
4E-\	x	4E-/	4ee-\	2aa-\	.	.	4E-\	.	.	.	.	(16c/LL	.	4ee-\	2aa-\	.	.	.	.
.	.	.	.	.	.	.	.	.	.	.	.	16e-/)	.	.	.	.	.	.	.
!	!	!	!	!	!	!	!	!	!	!	!	!LO:TX:b:t=|	!	!	!	!	!	!	!
.	.	.	.	.	.	.	.	.	.	4c/ 4a-/	.	16a-/	.	.	.	.	.	.	.
!	!	!	!	!	!	!	!	!	!	!	!	!LO:TX:b:t=|	!	!	!	!	!	!	!
.	.	.	.	.	.	.	.	.	.	.	.	16cc/JJ	.	.	.	.	.	.	.
4E-\	.	4r	4ee-\	.	.	.	4E-\	.	.	.	.	(16e-/LL	.	4ee-\	.	.	.	.	.
.	.	.	.	.	.	.	.	.	.	.	.	16a-/)	.	.	.	.	.	.	.
!	!	!	!	!	!	!	!	!	!	!	!	!LO:TX:b:t=|	!	!	!	!	!	!	!
.	.	.	.	.	.	.	.	.	.	8c/ 8a-/	.	16cc/	.	.	.	.	.	.	.
!	!	!	!	!	!	!	!	!	!	!	!	!LO:TX:b:t=|	!	!	!	!	!	!	!
.	.	.	.	.	.	.	.	.	.	.	.	16ee-/JJ	.	.	.	.	.	.	.
!LO:LB:g=original	!	!	!	!	!	!	!	!	!	!	!	!	!	!	!	!	!	!LO:LB:g=original	!
=9	=9	=9	=9	=9	=9	=9	=9	=9	=9	=9	=9	=9	=9	=9	=9	=9	=9	=9	=9
4E-\	5 3	4E-/	4e-/	2gg\	1ee-\	1gg\	4E-\	5 3	.	8B-/ 8g/	.	(16e-T/LL	.	4e-/	2gg\	1b-\	.	1gg\	.
.	.	.	.	.	.	.	.	.	.	.	.	16d/)	.	.	.	.	.	.	.
.	.	.	.	.	.	.	.	.	.	4B-/ 4g/	.	16e-/	.	.	.	.	.	.	.
!	!	!	!	!	!	!	!	!	!	!	!	!LO:TX:b:t=|	!	!	!	!	!	!	!
.	.	.	.	.	.	.	.	.	.	.	.	16B-/JJ	.	.	.	.	.	.	.
8E-\L	.	4r	8ee-\L	.	.	.	4E-\	.	.	.	.	(16G/LL	.	8ee-\L	.	.	.	.	.
.	_ _	.	.	.	.	.	.	.	.	.	.	16B-/)	.	.	.	.	.	.	.
!	!	!	!	!	!	!	!	!	!	!	!	!LO:TX:b:t=|	!	!	!	!	!	!	!
8E-\J	.	.	8ee-\J	.	.	.	.	.	.	4B-/ 4g/	.	16e-/	.	8ee-\J	.	.	.	.	.
!	!	!	!	!	!	!	!	!	!	!	!	!LO:TX:b:t=|	!	!	!	!	!	!	!
.	.	.	.	.	.	.	.	.	.	.	.	16g/JJ	.	.	.	.	.	.	.
4E-\	x	4E-/	4ee-\	2gg\	.	.	4E-\	.	.	.	.	(16B-/LL	.	4ee-\	2gg\	.	.	.	.
.	.	.	.	.	.	.	.	.	.	.	.	16e-/)	.	.	.	.	.	.	.
!	!	!	!	!	!	!	!	!	!	!	!	!LO:TX:b:t=|	!	!	!	!	!	!	!
.	.	.	.	.	.	.	.	.	.	4B-/ 4g/	.	16g/	.	.	.	.	.	.	.
!	!	!	!	!	!	!	!	!	!	!	!	!LO:TX:b:t=|	!	!	!	!	!	!	!
.	.	.	.	.	.	.	.	.	.	.	.	16b-/JJ	.	.	.	.	.	.	.
4E-\	.	4r	4ee-\	.	.	.	4E-\	.	.	.	.	(16e-/LL	.	4ee-\	.	.	.	.	.
.	.	.	.	.	.	.	.	.	.	.	.	16g/)	.	.	.	.	.	.	.
!	!	!	!	!	!	!	!	!	!	!	!	!LO:TX:b:t=|	!	!	!	!	!	!	!
.	.	.	.	.	.	.	.	.	.	8B-/ 8g/	.	16b-/	.	.	.	.	.	.	.
!	!	!	!	!	!	!	!	!	!	!	!	!LO:TX:b:t=|	!	!	!	!	!	!	!
.	.	.	.	.	.	.	.	.	.	.	.	16ee-/JJ	.	.	.	.	.	.	.
!	!	!	!	!	!	!	!	!	!	!	!	!LO:LB:g=original	!	!LO:LB:g=original	!	!LO:LB:g=original	!	!	!
=10	=10	=10	=10	=10	=10	=10	=10	=10	=10	=10	=10	=10	=10	=10	=10	=10	=10	=10	=10
*	*	*	*	*	*	*	*	*	*	*	*	*^	*	*	*	*	*	*	*
4C/	n6 4 3	1r	[2ff\	2aaX\	(2cc\	[2aa\	4C/	6n 4 3	.	16f/LL	.	1an/	(>16e-\LL	.	[2ff\	2aaX\	1cc\	.	1aan\	.
.	.	.	.	.	.	.	.	.	.	(16e-/	.	.	16f\	.	.	.	.	.	.	.
.	.	.	.	.	.	.	.	.	.	16f/	.	.	16e-\	.	.	.	.	.	.	.
.	.	.	.	.	.	.	.	.	.	16e-/JJ	.	.	16f\JJ)	.	.	.	.	.	.	.
8.C/L	_ _ _	.	.	.	.	.	8.C/L	.	.	16f/LL	.	.	16e-\LL	.	.	.	.	.	.	.
.	.	.	.	.	.	.	.	.	.	16e-/	.	.	16fn\	.	.	.	.	.	.	.
.	.	.	.	.	.	.	.	.	.	16f/	.	.	16e-\	.	.	.	.	.	.	.
16C/Jk	.	.	.	.	.	.	16C/Jk	.	.	16e-/JJ)	.	.	16f\JJ	.	.	.	.	.	.	.
4C/	x	.	2ff\]	2aa\	4cc\	4aa\]	4C/	.	.	(16f/LL	.	.	16e-\LL	.	2ff\]	2aa\	.	.	.	.
.	.	.	.	.	.	.	.	.	.	16e-/	.	.	16f\	.	.	.	.	.	.	.
.	.	.	.	.	.	.	.	.	.	16f/	.	.	(>16e-\	.	.	.	.	.	.	.
.	.	.	.	.	.	.	.	.	.	16e-/JJ	.	.	16f\JJ	.	.	.	.	.	.	.
4C/	.	.	.	.	4cc\)	4aa\	4C/	.	.	16f/LL	.	.	16e-\LL	.	.	.	.	.	.	.
.	.	.	.	.	.	.	.	.	.	16e-/	.	.	16f\)	.	.	.	.	.	.	.
.	.	.	.	.	.	.	.	.	.	16f/	.	.	16e-\	.	.	.	.	.	.	.
.	.	.	.	.	.	.	.	.	.	16e-/JJ)	.	.	16f\JJ	.	.	.	.	.	.	.
=11	=11	=11	=11	=11	=11	=11	=11	=11	=11	=11	=11	=11	=11	=11	=11	=11	=11	=11	=11	=11
!	!	!	!	!	!	!	!LO:TX:b:t=|	!	!	!	!	!	!	!	!	!	!	!	!	!
4BB-/	.	4BB-/	4b-/	4bb-\	[2dd\	[2bb-\	4BB-/	5	.	16f/LL	.	1b-/	(>16d\LL	.	4b-/	4bb-\	1dd\	.	1bb-\	.
.	.	.	.	.	.	.	.	.	.	(16d/	.	.	16f\	.	.	.	.	.	.	.
.	.	.	.	.	.	.	.	.	.	16f/	.	.	16d\	.	.	.	.	.	.	.
.	.	.	.	.	.	.	.	.	.	16d/JJ	.	.	16f\JJ	.	.	.	.	.	.	.
!	!	!	!	!	!	!	!LO:TX:b:t=|	!	!	!	!	!	!	!	!	!	!	!	!	!
8.BB-/L	.	8.BB-/L	2b-/	2ff\	.	.	8.BB-/L	.	.	16f/LL	.	.	16d\LL	.	2b-/	2ff\	.	.	.	.
.	.	.	.	.	.	.	.	.	.	16d/	.	.	16f\	.	.	.	.	.	.	.
.	.	.	.	.	.	.	.	.	.	16f/	.	.	16d\)	.	.	.	.	.	.	.
16BB-/Jk	.	16BB-/Jk	.	.	.	.	16BB-/Jk	.	.	16d/JJ)	.	.	16f\JJ	.	.	.	.	.	.	.
!	!	!	!	!	!	!	!	!	!	!LO:LB:g=original	!	!	!	!	!	!	!	!	!	!
!	!	!	!	!	!	!	!LO:TX:b:t=|	!	!	!	!	!	!	!	!	!	!	!	!	!
4BB-/	.	4BB-/	.	.	4dd\]	4bb-\]	4BB-/	.	.	(16f/LL	.	.	16e-\LL	.	.	.	.	.	.	.
.	.	.	.	.	.	.	.	.	.	16d/	.	.	(>16f\	.	.	.	.	.	.	.
.	.	.	.	.	.	.	.	.	.	16f/	.	.	16d\	.	.	.	.	.	.	.
.	.	.	.	.	.	.	.	.	.	16d/JJ	.	.	16f\JJ	.	.	.	.	.	.	.
!	!	!	!	!	!	!	!LO:TX:b:t=|	!	!	!	!	!	!	!	!	!	!	!	!	!
4BB-/	.	4r	4b-/	4ff\	4dd\	4bb-\	4BB-/	.	.	16f/LL	.	.	16d\LL	.	4b-/	4ff\	.	.	.	.
.	.	.	.	.	.	.	.	.	.	16d/	.	.	16f\	.	.	.	.	.	.	.
.	.	.	.	.	.	.	.	.	.	16f/	.	.	16d\	.	.	.	.	.	.	.
.	.	.	.	.	.	.	.	.	.	16d/JJ)	.	.	16f\JJ)	.	.	.	.	.	.	.
!	!	!LO:LB:g=original	!LO:LB:g=original	!LO:LB:g=original	!	!	!LO:LB:g=original	!	!	!	!	!	!	!	!	!LO:LB:g=original	!	!	!	!
=12	=12	=12	=12	=12	=12	=12	=12	=12	=12	=12	=12	=12	=12	=12	=12	=12	=12	=12	=12	=12
4AAn/	6 5	1r	[2.ff\	2.ff\	[2ee-\	[2ccc\	4AAn/	6 5	.	16f/LL	.	(<16cc/LL	1f\	.	[2ff\	2ff\	1ee-\	.	1ccc\	.
.	.	.	.	.	.	.	.	.	.	(16c/	.	16ee-/	.	.	.	.	.	.	.	.
.	.	.	.	.	.	.	.	.	.	16f/	.	16cc/	.	.	.	.	.	.	.	.
.	.	.	.	.	.	.	.	.	.	16c/JJ	.	16ee-/JJ	.	.	.	.	.	.	.	.
8.AA/L	.	.	.	.	.	.	8.AA/L	.	.	16f/LL	.	16cc/LL	.	.	.	.	.	.	.	.
.	.	.	.	.	.	.	.	.	.	16c/	.	16ee-/	.	.	.	.	.	.	.	.
.	.	.	.	.	.	.	.	.	.	16f/	.	16cc/	.	.	.	.	.	.	.	.
16AA/Jk	.	.	.	.	.	.	16AA/Jk	.	.	16c/JJ)	.	16ee-/JJ)	.	.	.	.	.	.	.	.
!LO:LB:g=original	!	!	!	!	!	!	!	!	!	!	!	!	!	!	!	!	!	!	!	!
4AA/	.	.	.	.	4ee-\]	4ccc\]	4AA/	.	.	16f/LL	.	(<16cc/LL	.	.	4ff\]	4ff\	.	.	.	.
.	.	.	.	.	.	.	.	.	.	(16c/	.	16ee-/	.	.	.	.	.	.	.	.
.	.	.	.	.	.	.	.	.	.	16f/	.	16cc/	.	.	.	.	.	.	.	.
.	.	.	.	.	.	.	.	.	.	16c/JJ	.	16ee-/JJ	.	.	.	.	.	.	.	.
4AA/	.	.	4ff\]	4ff\	(4ee-\	4ccc\	4AA/	.	.	16f/LL	.	16cc/LL	.	.	4ff\	4ff\	.	.	.	.
.	.	.	.	.	.	.	.	.	.	16c/	.	16ee-/	.	.	.	.	.	.	.	.
.	.	.	.	.	.	.	.	.	.	16f/	.	16cc/	.	.	.	.	.	.	.	.
.	.	.	.	.	.	.	.	.	.	16c/JJ)	.	16ee-/JJ)	.	.	.	.	.	.	.	.
*	*	*	*	*	*	*	*	*	*	*	*	*v	*v	*	*	*	*	*	*	*
!	!	!	!	!	!	!	!	!	!	!	!	!LO:LB:g=original	!	!	!	!	!	!	!
=13	=13	=13	=13	=13	=13	=13	=13	=13	=13	=13	=13	=13	=13	=13	=13	=13	=13	=13	=13
2BB-/	.	4BB-/	2b-/	2ff\	2dd\)	2bb-\	2BB-/	.	.	4B-/ 4d/ 4b-/	.	4B-/ 4f/ 4dd/	.	2b-/	2ff\	2dd\	.	2bb-\	.
.	.	4r	.	.	.	.	.	.	.	8.r	.	8.r	.	.	.	.	.	.	.
!	!	!	!	!	!	!	!	!	!	!LO:TX:a:t=|	!	!LO:TX:a:t=|	!LO:DY:t=pia&colon;	!	!	!	!	!	!
.	.	.	.	.	.	.	.	.	.	16dd\	p	16bb-\	p	.	.	.	.	.	.
2r	.	2r	2r	2r	2r	2r	2r	.	.	(16dd\LL	.	(16bb-\LL	.	2r	2r	2r	.	2r	.
.	.	.	.	.	.	.	.	.	.	16cc\)	.	16aan\)	.	.	.	.	.	.	.
.	.	.	.	.	.	.	.	.	.	(16cc\	.	(16aa\	.	.	.	.	.	.	.
.	.	.	.	.	.	.	.	.	.	16ee-\JJ)	.	16gg\JJ)	.	.	.	.	.	.	.
.	.	.	.	.	.	.	.	.	.	(16ee-\LL	.	(16gg\LL	.	.	.	.	.	.	.
.	.	.	.	.	.	.	.	.	.	16dd\)	.	16ff\)	.	.	.	.	.	.	.
.	.	.	.	.	.	.	.	.	.	(16dd\	.	(16ff\	.	.	.	.	.	.	.
.	.	.	.	.	.	.	.	.	.	16cc\JJ)	.	16ee-\JJ)	.	.	.	.	.	.	.
!	!	!	!	!	!LO:LB:g=original	!	!	!	!	!	!	!	!	!	!	!	!	!	!
=14	=14	=14	=14	=14	=14	=14	=14	=14	=14	=14	=14	=14	=14	=14	=14	=14	=14	=14	=14
!	!	!	!	!	!	!	!	!	!	!	!LO:DY:rj	!	!	!	!	!	!	!	!
2BB-/	.	4BB-/	2b-/	2ff\	2dd\	2bb-\	2BB-/	.	.	4B-/ 4e-/ 4b-/	f	4B-/ 4f/ 4dd/	f	2b-/	2ff\	2dd\	.	2bb-\	.
.	.	4r	.	.	.	.	.	.	.	8.r	.	8.r	.	.	.	.	.	.	.
!	!	!	!	!	!	!	!	!	!	!LO:TX:a:t=|	!	!LO:TX:a:t=|	!	!	!	!	!	!	!
.	.	.	.	.	.	.	.	.	.	16ee-\	.	16gg\	p	.	.	.	.	.	.
2r	.	2r	2r	2r	2r	2r	2r	.	.	(16ee-\LL	.	(16gg\LL	.	2r	2r	2r	.	2r	.
.	.	.	.	.	.	.	.	.	.	16dd\)	.	16ff\)	.	.	.	.	.	.	.
.	.	.	.	.	.	.	.	.	.	(16dd\	.	(16ff\	.	.	.	.	.	.	.
.	.	.	.	.	.	.	.	.	.	16cc\JJ)	.	16ee-\JJ)	.	.	.	.	.	.	.
!	!	!	!	!	!	!	!	!	!	!LO:LB:g=original	!	!	!	!	!	!	!	!	!
.	.	.	.	.	.	.	.	.	.	(16cc\LL	.	(16ee-\LL	.	.	.	.	.	.	.
.	.	.	.	.	.	.	.	.	.	16b-\)	.	16dd\)	.	.	.	.	.	.	.
.	.	.	.	.	.	.	.	.	.	(16b-\	.	(16dd\	.	.	.	.	.	.	.
.	.	.	.	.	.	.	.	.	.	16an\JJ)	.	16cc\JJ)	.	.	.	.	.	.	.
!	!	!	!	!	!	!LO:LB:g=original	!	!	!	!	!	!	!	!	!	!	!	!	!
=15	=15	=15	=15	=15	=15	=15	=15	=15	=15	=15	=15	=15	=15	=15	=15	=15	=15	=15	=15
4r	.	4BB-/	4r	4r	4r	4r	4r	.	.	[2b-/	.	[4b-/	f	4r	4r	4r	.	4r	.
4D\	x 6	4r	4b-/	2ff\	4dd\	2bb-\	4D\	6	.	.	.	(16b-/LL]	.	4b-/	2ff\	4dd\	.	2bb-\	.
.	.	.	.	.	.	.	.	.	.	.	.	16an/	.	.	.	.	.	.	.
.	.	.	.	.	.	.	.	.	.	.	.	16b-/	.	.	.	.	.	.	.
.	.	.	.	.	.	.	.	.	.	.	.	16cc/JJ)	.	.	.	.	.	.	.
!	!	!	!	!	!	!	!	!	!	!	!	!	!	!	!	!LO:TX:a:t=t.	!	!	!
.	.	.	.	.	.	.	.	.	.	.	.	8qqdd/	.	.	.	.	.	.	.
4E-\	6 5	2r	4ff\	.	2cc\	.	4E-\	6 5	.	(16b-/LL]	.	2ccT\	.	2ff\	.	2cc\	.	.	.
.	.	.	.	.	.	.	.	.	.	16an/)	.	.	.	.	.	.	.	.	.
.	.	.	.	.	.	.	.	.	.	(16b-/	.	.	.	.	.	.	.	.	.
.	.	.	.	.	.	.	.	.	.	16g/JJ)	.	.	.	.	.	.	.	.	.
4F\	x 7	.	4ff\	4ff\	.	4aa\	4F\	n	.	4ant</	.	.	.	.	4ff\	.	.	4aant\	.
=16	=16	=16	=16	=16	=16	=16	=16	=16	=16	=16	=16	=16	=16	=16	=16	=16	=16	=16	=16
*	*	*	*	*	*	*	*	*	*	*2\right	*	*	*	*	*	*	*	*	*
!	!	!	!	!	!	!	!	!	!	!	!	!	!	!	!	!LO:TX:b:i:t=Solo	!	!LO:TX:b:i:t=Solo	!
2BB-/	.	2BB-/	4b-/	2ff\	4dd\	4bb-\	2BB-/	.	.	2b-\	.	2b-\	.	4b-/	2ff\	4dd\	.	4bb-\	.
!	!	!	!	!	!	!	!	!	!	!	!	!	!	!	!	!LO:TUP:a:problem:klamra łukowa	!	!LO:TUP:a:problem:klamra łukowa	!
.	.	.	4r	.	4r	4r	.	.	.	.	.	.	.	4r	.	24dd\LL	.	24ff\LL	.
.	.	.	.	.	.	.	.	.	.	.	.	.	.	.	.	24ee-\	.	24gg\	.
.	.	.	.	.	.	.	.	.	.	.	.	.	.	.	.	24ff\JJ	.	24aan\JJ	.
!	!	!	!	!	!	!	!	!	!	!	!	!	!	!	!	!LO:TUP:a:problem:klamra łukowa	!	!LO:TUP:a:problem:klamra łukowa	!
.	.	.	.	.	.	.	.	.	.	.	.	.	.	.	.	24gg\LL	.	24bb-\LL	.
.	.	.	.	.	.	.	.	.	.	.	.	.	.	.	.	24ff\	.	24aa-X\	.
.	.	.	.	.	.	.	.	.	.	.	.	.	.	.	.	24ee-\JJ	.	24gg\JJ	.
2r	.	2r	2r	2r	2r	2r	2r	.	.	4r	.	4r	.	2r	2r	4dd\	.	4ff\	.
!	!	!	!	!	!	!	!	!	!	!	!	!	!	!	!	!LO:TX:a:t=t	!	!	!
.	.	.	.	.	.	.	.	.	.	4f/	.	4an/	p	.	.	4cc\	.	4ee-T\	.
!	!	!	!	!	!	!	!	!	!	!	!	!	!	!LO:LB:g=original	!	!	!	!LO:LB:g=original	!
=17	=17	=17	=17	=17	=17	=17	=17	=17	=17	=17	=17	=17	=17	=17	=17	=17	=17	=17	=17
!	!	!LO:TX:a:t=3	!	!	!	!	!LO:TX:a:t=3	!	!	!	!	!	!	!	!	!	!	!	!
.	.	.	.	.	.	.	.	.	.	.	.	.	.	.	.	8qqcc/	.	8qqee-/	.
2BB-/	.	0r	4b-/	4ff\	4dd\	4bb-\	0r	.	.	4B-/	.	4f/	.	4b-/	4ff\	4b-\	.	4dd\	.
.	.	.	2b-/	2ff\	8dd\L	16ff\LL	.	.	.	4r	.	4r	.	2b-/	2ff\	4r	.	4r	.
.	.	.	.	.	.	16bb-\	.	.	.	.	.	.	.	.	.	.	.	.	.
.	.	.	.	.	16ff\L	16aa\	.	.	.	.	.	.	.	.	.	.	.	.	.
.	.	.	.	.	16ee-\JJ	16gg\JJ	.	.	.	.	.	.	.	.	.	.	.	.	.
4r	.	.	.	.	4dd\	4ff\	.	.	.	2r	.	2r	.	.	.	2r	.	2r	.
4F\	7	.	4b-/	4ff\	4cc\	4ee-\	.	.	.	.	.	.	.	4b-/	4ff\	.	.	.	.
!LO:LB:g=original	!	!	!LO:LB:g=original	!	!	!	!	!	!	!	!	!LO:LB:g=original	!	!	!	!	!	!	!
=18	=18	=18	=18	=18	=18	=18	=18	=18	=18	=18	=18	=18	=18	=18	=18	=18	=18	=18	=18
4B-\	.	.	2ff\	4ff\	4b-\	4dd\	.	.	.	4r	.	4r	.	2b-/	4ff\	4r	.	4r	.
!	!	!	!	!	!	!	!	!	!	!	!	!	!	!	!	!LO:TUP:a:problem:klamra łukowa	!	!LO:TUP:a:problem:klamra łukowa	!
4r	.	.	.	4r	4r	4r	.	.	.	4B-/	.	4B-/	.	.	4r	24dd\LL	.	24ff\LL	.
.	.	.	.	.	.	.	.	.	.	.	.	.	.	.	.	24ee-\	.	24gg\	.
.	.	.	.	.	.	.	.	.	.	.	.	.	.	.	.	24ff\JJ	.	24aan\JJ	.
!	!	!	!	!	!	!	!	!	!	!	!	!	!	!	!	!LO:LB:g=original	!	!	!
!	!	!	!	!	!	!	!	!	!	!	!	!	!	!	!	!LO:TUP:a:problem:klamra łukowa	!	!LO:TUP:a:problem:klamra łukowa	!
.	.	.	.	.	.	.	.	.	.	.	.	.	.	.	.	8qqaa-/	.	8qqccc/	.
.	.	.	.	.	.	.	.	.	.	.	.	.	.	.	.	24gg\LL	.	24bb-\LL	.
.	.	.	.	.	.	.	.	.	.	.	.	.	.	.	.	24ff\	.	24aa\	.
.	.	.	.	.	.	.	.	.	.	.	.	.	.	.	.	24ee-\JJ	.	24gg\JJ	.
2r	.	.	2r	2r	2r	2r	.	.	.	4B-/	.	4B-/	.	2r	2r	(8ee-\L	.	(8gg\L	.
.	.	.	.	.	.	.	.	.	.	.	.	.	.	.	.	8dd\)	.	8ff\)	.
.	.	.	.	.	.	.	.	.	.	4An/	.	4An/	.	.	.	(8dd\	.	(8ff\	.
.	.	.	.	.	.	.	.	.	.	.	.	.	.	.	.	8cc\J)	.	8ee-\J)	.
!	!	!	!	!LO:LB:g=original	!	!	!	!	!	!	!	!	!	!	!LO:LB:g=original	!	!	!	!
=19	=19	=19	=19	=19	=19	=19	=19	=19	=19	=19	=19	=19	=19	=19	=19	=19	=19	=19	=19
.	.	.	.	.	.	.	.	.	.	.	.	.	.	.	.	8qqcc/	.	8qqee-/	.
4r	.	1r	4r	4r	4r	4r	1r	.	.	4B-/	.	4B-/	.	4r	4r	2b-\	.	2dd\	.
4B-\	.	.	2b-/	4ff\	4dd\	16ff\LL	.	.	.	4r	.	4r	.	4b-/	4ff\	.	.	.	.
.	.	.	.	.	.	16gg\	.	.	.	.	.	.	.	.	.	.	.	.	.
.	.	.	.	.	.	16aa\	.	.	.	.	.	.	.	.	.	.	.	.	.
.	.	.	.	.	.	16bb-\JJ	.	.	.	.	.	.	.	.	.	.	.	.	.
4B-\	.	.	.	4gg\	8ee-\L	8gg\L	.	.	.	2r	.	2r	.	4ee-\	4gg\	2r	.	2r	.
.	.	.	.	.	8dd\	8ff\	.	.	.	.	.	.	.	.	.	.	.	.	.
4An\	6 5	.	4b-/	4ff\	8dd\	8ff\	.	.	.	.	.	.	.	4b-/	4ff\	.	.	.	.
.	.	.	.	.	8cc\J	8ee-\J	.	.	.	.	.	.	.	.	.	.	.	.	.
!	!	!	!	!	!LO:LB:g=original	!	!	!	!	!	!	!	!	!	!	!	!	!	!
=20	=20	=20	=20	=20	=20	=20	=20	=20	=20	=20	=20	=20	=20	=20	=20	=20	=20	=20	=20
*2\right	*	*	*	*	*	*	*	*	*	*	*	*	*	*	*	*	*	*	*
2B-\	.	2BB-/	2b-/	2ff\	2b-\	2dd\	8r	.	.	4f/	.	4d/ 4b-/	f	4b-/	4ff\	[1d/	.	[<1b-\	.
!	!	!	!	!	!	!	!LO:TX:a:t=|	!	!	!	!	!	!	!	!	!	!	!	!
.	.	.	.	.	.	.	8B-\L	.	.	.	.	.	.	.	.	.	.	.	.
!	!	!	!	!	!	!	!LO:TX:a:t=|	!	!	!	!	!	!	!	!	!	!	!	!
.	.	.	.	.	.	.	8An\	.	.	8.f/L	.	8.d/L 8.b-/	.	8.b-/L	8.ff\L	.	.	.	.
!	!	!	!	!	!	!	!LO:TX:a:t=|	!	!	!	!	!	!	!	!	!	!	!	!
.	.	.	.	.	.	.	8B-\J	.	.	.	.	.	.	.	.	.	.	.	.
.	.	.	.	.	.	.	.	.	.	16f/Jk	.	16d/Jk 16b-/	.	16b-/Jk	16ff\Jk	.	.	.	.
2r	.	4.BB-/	2r	2r	2r	2r	8F\L	6 4	.	4f/	.	4d/ 4b-/	.	4b-/	4ff\	.	.	.	.
!	!	!	!	!	!	!	!LO:TX:a:t=|	!	!	!	!	!	!	!	!	!	!	!	!
.	.	.	.	.	.	.	8B-\	.	.	.	.	.	.	.	.	.	.	.	.
!	!	!	!	!	!	!	!LO:TX:a:t=|	!	!	!	!	!	!	!	!	!	!	!	!
.	.	.	.	.	.	.	8D\	.	.	4f/	.	4d/ 4b-/	.	4b-/	4ff\	.	.	.	.
!	!	!	!	!	!	!	!LO:TX:a:t=|	!	!	!	!	!	!	!	!	!	!	!	!
.	.	8BB-/	.	.	.	.	8F\J	.	.	.	.	.	.	.	.	.	.	.	.
!	!	!LO:LB:g=original	!	!	!	!LO:LB:g=original	!LO:LB:g=original	!	!	!LO:LB:g=original	!	!	!	!	!	!	!	!	!
=21	=21	=21	=21	=21	=21	=21	=21	=21	=21	=21	=21	=21	=21	=21	=21	=21	=21	=21	=21
8r	.	2BB-/	4b-/	4ff\	4d/	4b-\	2BB-/	.	.	2f/	.	2dt/ 2b-t/	.	2b-/	2ff\	2d/]	.	2b-/]	.
8B-\L	.	.	.	.	.	.	.	.	.	.	.	.	.	.	.	.	.	.	.
8An\	.	.	8.b-/L	8.ff\L	8.d/L	8.b-\L	.	.	.	.	.	.	.	.	.	.	.	.	.
8B-\J	.	.	.	.	.	.	.	.	.	.	.	.	.	.	.	.	.	.	.
.	.	.	16b-/Jk	16ff\Jk	16d/Jk	16b-\Jk	.	.	.	.	.	.	.	.	.	.	.	.	.
8F\L	.	2r	4b-/	4ff\	4d/	4b-\	2r	.	.	2r	.	2r	.	2r	2r	2r	.	2r	.
8B-\	.	.	.	.	.	.	.	.	.	.	.	.	.	.	.	.	.	.	.
8D\	.	.	4b-/	4ff\	4d/	4b-\	.	.	.	.	.	.	.	.	.	.	.	.	.
8F\J	.	.	.	.	.	.	.	.	.	.	.	.	.	.	.	.	.	.	.
!	!	!	!	!	!	!	!	!	!	!	!	!	!	!LO:LB:g=original	!	!	!	!	!
=22	=22	=22	=22	=22	=22	=22	=22	=22	=22	=22	=22	=22	=22	=22	=22	=22	=22	=22	=22
*	*	*	*	*	*	*	*	*	*	*	*	*^	*	*	*	*	*	*	*
2BB-/	.	2BB-/	2b-/	2ff\	2d/	2b-\	8r	.	.	4d/ 4b-/	.	4dd/	4f\	.	4b-/	4ff\	[1b-\	.	[1dd\	.
!	!	!	!	!	!	!	!LO:TX:a:t=|	!	!	!	!	!	!	!	!	!	!	!	!	!
.	.	.	.	.	.	.	8B-\L	.	.	.	.	.	.	.	.	.	.	.	.	.
!	!	!	!	!	!	!	!LO:TX:a:t=|	!	!	!	!	!	!	!	!	!	!	!	!	!
.	.	.	.	.	.	.	8An\	.	.	8.d/L 8.b-/	.	8.dd/L	8.f\L	.	8b-/L	8.ff\L	.	.	.	.
!	!	!	!	!	!	!	!LO:TX:a:t=|	!	!	!	!	!	!	!	!	!	!	!	!	!
.	.	.	.	.	.	.	8B-\J	.	.	.	.	.	.	.	8b-/J	.	.	.	.	.
.	.	.	.	.	.	.	.	.	.	16d/Jk 16b-/	.	16dd/Jk	16f\Jk	.	.	16ff\Jk	.	.	.	.
2r	.	4.BB-/	2r	2r	2r	2r	8F\L	6 4	.	4d/ 4b-/	.	4dd/	4f\	.	4b-/	4ff\	.	.	.	.
!	!	!	!	!	!	!	!LO:TX:a:t=|	!	!	!	!	!	!	!	!	!	!	!	!	!
.	.	.	.	.	.	.	8B-\	.	.	.	.	.	.	.	.	.	.	.	.	.
!	!	!	!	!	!	!	!LO:TX:a:t=|	!	!	!	!	!	!	!	!	!	!	!	!	!
.	.	.	.	.	.	.	8D\	.	.	4d/ 4b-/	.	4dd/	4f\	.	4b-/	4ff\	.	.	.	.
!	!	!	!	!	!	!	!LO:TX:a:t=|	!	!	!	!	!	!	!	!	!	!	!	!	!
.	.	8BB-/	.	.	.	.	8F\J	.	.	.	.	.	.	.	.	.	.	.	.	.
=23	=23	=23	=23	=23	=23	=23	=23	=23	=23	=23	=23	=23	=23	=23	=23	=23	=23	=23	=23	=23
8r	.	2BB-/	4b-/	4ff\	4b-\	4dd\	2BB-/	.	.	2d/ 2b-/	.	2ddt/	2fT>\	.	2b-/	2ff\	2b-\]	.	2dd\]	.
8B-\L	.	.	.	.	.	.	.	.	.	.	.	.	.	.	.	.	.	.	.	.
8An\	.	.	8b-/L	8ff\L	8.b-\L	8.dd\L	.	.	.	.	.	.	.	.	.	.	.	.	.	.
8B-\J	.	.	8b-/J	8ff\J	.	.	.	.	.	.	.	.	.	.	.	.	.	.	.	.
.	.	.	.	.	16b-\Jk	16dd\Jk	.	.	.	.	.	.	.	.	.	.	.	.	.	.
!LO:LB:g=original	!	!	!	!	!	!	!	!	!	!	!	!	!	!	!	!	!	!	!	!
8F\L	.	2r	4b-/	4ff\	4b-\	4dd\	2r	.	.	2r	.	2r	2ryy	.	2r	2r	2r	.	2r	.
8B-\	.	.	.	.	.	.	.	.	.	.	.	.	.	.	.	.	.	.	.	.
8D\	.	.	4b-/	4ff\	4b-\	4dd\	.	.	.	.	.	.	.	.	.	.	.	.	.	.
8F\J	.	.	.	.	.	.	.	.	.	.	.	.	.	.	.	.	.	.	.	.
!	!	!	!LO:LB:g=original	!	!	!	!	!	!	!	!	!	!	!	!	!LO:LB:g=original	!	!	!LO:LB:g=original	!
=24	=24	=24	=24	=24	=24	=24	=24	=24	=24	=24	=24	=24	=24	=24	=24	=24	=24	=24	=24	=24
*	*	*	*	*	*	*	*	*	*	*^	*	*	*	*	*	*	*	*	*	*
2BB-/	.	2BB-/	2b-/	2ff\	2b-\	2dd\	8r	.	.	4dd/	4f\	.	4ff/	4dd\	.	4b-/	4ff\	[1dd\	.	[1ff\	.
!	!	!	!	!	!	!	!LO:TX:a:t=|	!	!	!	!	!	!	!	!	!	!	!	!	!	!
.	.	.	.	.	.	.	8B-\L	.	.	.	.	.	.	.	.	.	.	.	.	.	.
!	!	!	!	!	!	!	!LO:TX:a:t=|	!	!	!	!	!	!	!	!	!	!	!	!	!	!
.	.	.	.	.	.	.	8An\	.	.	8.dd/L	8.f\L	.	8.ff/L	8.dd\L	.	8.b-/L	8.ff\L	.	.	.	.
!	!	!	!	!	!	!	!LO:TX:a:t=|	!	!	!	!	!	!	!	!	!	!	!	!	!	!
.	.	.	.	.	.	.	8B-\J	.	.	.	.	.	.	.	.	.	.	.	.	.	.
.	.	.	.	.	.	.	.	.	.	16dd/Jk	16f\Jk	.	16ff/Jk	16dd\Jk	.	16b-/Jk	16ff\Jk	.	.	.	.
2r	.	4.BB-/	2r	2r	2r	2r	8F\L	6 4	.	4dd/	4f\	.	4ff/	4dd\	.	4b-/	4ff\	.	.	.	.
!	!	!	!	!	!	!	!LO:TX:a:t=|	!	!	!	!	!	!	!	!	!	!	!	!	!	!
.	.	.	.	.	.	.	8B-\	.	.	.	.	.	.	.	.	.	.	.	.	.	.
!	!	!	!	!	!	!	!LO:TX:a:t=|	!	!	!	!	!	!	!	!	!	!	!	!	!	!
.	.	.	.	.	.	.	8D\	.	.	4dd/	4f\	.	4ff/	4dd\	.	4b-/	4ff\	.	.	.	.
!	!	!	!	!	!	!	!LO:TX:a:t=|	!	!	!	!	!	!	!	!	!	!	!	!	!	!
.	.	8BB-/	.	.	.	.	8F\J	.	.	.	.	.	.	.	.	.	.	.	.	.	.
!	!	!	!	!LO:LB:g=original	!	!	!	!	!	!	!	!	!	!	!	!	!	!	!	!	!
=25	=25	=25	=25	=25	=25	=25	=25	=25	=25	=25	=25	=25	=25	=25	=25	=25	=25	=25	=25	=25	=25
8r	.	2BB-/	4b-/	4ff\	4dd\	4ff\	2BB-/	.	.	2dd/	2f\	.	2ffT/	2ddt>\	.	2b-/	2ff\	2dd\]	.	2ff\]	.
8B-\L	.	.	.	.	.	.	.	.	.	.	.	.	.	.	.	.	.	.	.	.	.
8An\	.	.	8b-/L	8.ff\L	8.dd\L	8.ff\L	.	.	.	.	.	.	.	.	.	.	.	.	.	.	.
8B-\J	.	.	8b-/J	.	.	.	.	.	.	.	.	.	.	.	.	.	.	.	.	.	.
.	.	.	.	16ff\Jk	16dd\Jk	16ff\Jk	.	.	.	.	.	.	.	.	.	.	.	.	.	.	.
8F\L	.	2r	4b-/	4ff\	4dd\	4ff\	2r	.	.	2r	2ryy	.	2r	2ryy	.	2r	2r	2r	.	2r	.
8B-\	.	.	.	.	.	.	.	.	.	.	.	.	.	.	.	.	.	.	.	.	.
8D\	.	.	4b-/	4ff\	4dd\	4ff\	.	.	.	.	.	.	.	.	.	.	.	.	.	.	.
8F\J	.	.	.	.	.	.	.	.	.	.	.	.	.	.	.	.	.	.	.	.	.
*	*	*	*	*	*	*	*	*	*	*v	*v	*	*	*	*	*	*	*	*	*	*
*	*	*	*	*	*	*	*	*	*	*	*	*v	*v	*	*	*	*	*	*	*
!	!	!	!	!	!LO:LB:g=original	!LO:LB:g=original	!	!	!	!	!	!LO:LB:g=original	!	!	!	!	!	!	!
=26	=26	=26	=26	=26	=26	=26	=26	=26	=26	=26	=26	=26	=26	=26	=26	=26	=26	=26	=26
!	!	!LO:TX:a:t=9	!	!	!	!	!	!	!	!	!	!	!	!LO:TX:a:t=9	!LO:TX:a:t=9	!	!	!	!
2BB-/	.	00r	2b-/	2ff\	2dd\	2ff\	4r	.	.	4r	.	4r	.	00r	00r	2r	.	4r	.
!	!	!	!	!	!	!	!	!	!	!	!	!	!	!	!	!	!	!LO:TX:a:rj:i:t=Solo	!
.	.	.	.	.	.	.	4BB-/	.	.	4B-/	.	4B-/	.	.	.	.	.	(16b-\LL	.
.	.	.	.	.	.	.	.	.	.	.	.	.	.	.	.	.	.	16cc\	.
.	.	.	.	.	.	.	.	.	.	.	.	.	.	.	.	.	.	16dd\	.
.	.	.	.	.	.	.	.	.	.	.	.	.	.	.	.	.	.	16ee-\JJ)	.
2r	.	.	2r	2r	2r	2r	4BB-/	.	.	4B-/	.	4B-/	.	.	.	(16b-\LL	.	(16dd\LL	.
.	.	.	.	.	.	.	.	.	.	.	.	.	.	.	.	16cc\	.	16ee-\	.
.	.	.	.	.	.	.	.	.	.	.	.	.	.	.	.	16dd\	.	16ff\	.
.	.	.	.	.	.	.	.	.	.	.	.	.	.	.	.	16ee-\JJ)	.	16gg\JJ)	.
.	.	.	.	.	.	.	4BB-/	7	.	4B-/	.	4B-/	p	.	.	(16gg\LL	.	(16bb-\LL	.
.	.	.	.	.	.	.	.	.	.	.	.	.	.	.	.	16ff\)	.	16aa-X\)	.
.	.	.	.	.	.	.	.	.	.	.	.	.	.	.	.	(16ee-\	.	(16gg\	.
.	.	.	.	.	.	.	.	.	.	.	.	.	.	.	.	16dd\JJ)	.	16ff\JJ)	.
!	!	!	!	!	!	!	!LO:LB:g=original	!	!	!	!	!	!	!	!	!LO:LB:g=original	!	!	!
=27	=27	=27	=27	=27	=27	=27	=27	=27	=27	=27	=27	=27	=27	=27	=27	=27	=27	=27	=27
!LO:TX:a:t=9	!	!	!LO:TX:a:t=9	!LO:TX:a:t=9	!LO:TX:a:t=9	!LO:TX:a:t=9	!	!	!	!	!	!	!	!	!	!	!	!	!
00r	.	.	00r	00r	00r	00r	4E-\	.	.	4e-/	.	4e-/	.	.	.	(16dd\KL	.	(16ff#X\KL	.
.	.	.	.	.	.	.	.	.	.	.	.	.	.	.	.	8.ee-\J)	.	8.gg\J)	.
.	.	.	.	.	.	.	4G\	n	.	4g/	.	4g/	.	.	.	4r	.	(16g\LL	.
.	.	.	.	.	.	.	.	.	.	.	.	.	.	.	.	.	.	16an\	.
.	.	.	.	.	.	.	.	.	.	.	.	.	.	.	.	.	.	16bn\	.
.	.	.	.	.	.	.	.	.	.	.	.	.	.	.	.	.	.	16cc\JJ)	.
.	.	.	.	.	.	.	4GG/	.	.	4G/	.	4G/	.	.	.	(16g\LL	.	(16bn\LL	.
.	.	.	.	.	.	.	.	.	.	.	.	.	.	.	.	16an\	.	16cc\	.
.	.	.	.	.	.	.	.	.	.	.	.	.	.	.	.	16bn\	.	16dd\	.
.	.	.	.	.	.	.	.	.	.	.	.	.	.	.	.	16cc\JJ)	.	16ee-\JJ)	.
.	.	.	.	.	.	.	4G\	7	.	4g/	.	4g/	.	.	.	16ee-\LL	.	(16gg\LL	.
.	.	.	.	.	.	.	.	.	.	.	.	.	.	.	.	(16dd\	.	16ff#\)	.
.	.	.	.	.	.	.	.	.	.	.	.	.	.	.	.	16cc\	.	(16ee-\	.
.	.	.	.	.	.	.	.	.	.	.	.	.	.	.	.	16bn\JJ)	.	16dd\JJ)	.
!	!	!	!	!	!	!	!	!	!	!LO:LB:g=original	!	!	!	!	!	!	!	!	!
=28	=28	=28	=28	=28	=28	=28	=28	=28	=28	=28	=28	=28	=28	=28	=28	=28	=28	=28	=28
.	.	.	.	.	.	.	2C/	.	.	4c/	.	4c/	.	.	.	4cc\	.	(32ee-\LLL	.
.	.	.	.	.	.	.	.	.	.	.	.	.	.	.	.	.	.	32dd\JJ)	.
.	.	.	.	.	.	.	.	.	.	.	.	.	.	.	.	.	.	8.cc\J	.
.	.	.	.	.	.	.	.	.	.	(4cc\	.	(4cc\	.	.	.	4ee-\	.	4.aa-\	.
.	.	.	.	.	.	.	.	.	.	.	.	.	.	.	.	8qqee-/	.	.	.
.	.	.	.	.	.	.	2r	.	.	4bn\)	.	4bn\)	.	.	.	2dd\	.	.	.
.	.	.	.	.	.	.	.	.	.	.	.	.	.	.	.	.	.	8ff#X\	.
.	.	.	.	.	.	.	.	.	.	.	.	.	.	.	.	.	.	8qqff#/	.
.	.	.	.	.	.	.	.	.	.	(<4b-X\	.	(<4b-X\	.	.	.	.	.	[4gg\	.
!	!	!	!	!	!	!	!	!	!	!	!	!	!	!	!	!	!	!LO:LB:g=original	!
=29	=29	=29	=29	=29	=29	=29	=29	=29	=29	=29	=29	=29	=29	=29	=29	=29	=29	=29	=29
!	!	!	!	!	!	!	!LO:TX:a:t=2	!	!	!	!	!	!	!	!	!	!	!	!
.	.	.	.	.	.	.	0r	.	.	4an/)	.	4an/)	.	.	.	[4cc\	.	16gg\LL]	.
.	.	.	.	.	.	.	.	.	.	.	.	.	.	.	.	.	.	(16een\	.
.	.	.	.	.	.	.	.	.	.	.	.	.	.	.	.	.	.	16ff\)	.
.	.	.	.	.	.	.	.	.	.	.	.	.	.	.	.	.	.	16ee\JJ	.
.	.	.	.	.	.	.	.	.	.	(4a-X/	.	(4a-X/	.	.	.	16cc\LL]	.	[4ff\	.
.	.	.	.	.	.	.	.	.	.	.	.	.	.	.	.	(16b-\	.	.	.
.	.	.	.	.	.	.	.	.	.	.	.	.	.	.	.	16cc\)	.	.	.
.	.	.	.	.	.	.	.	.	.	.	.	.	.	.	.	16a-\JJ	.	.	.
.	.	.	.	.	.	.	.	.	.	4g/)	.	4g/)	.	.	.	[4b-/	.	(16ff\LL]	.
.	.	.	.	.	.	.	.	.	.	.	.	.	.	.	.	.	.	16dd\)	.
.	.	.	.	.	.	.	.	.	.	.	.	.	.	.	.	.	.	(16dd\	.
.	.	.	.	.	.	.	.	.	.	.	.	.	.	.	.	.	.	16ee-X\JJ)	.
!	!	!	!	!	!	!	!	!	!	!LO:TX:b:t=|	!	!LO:TX:b:t=|	!	!	!	!	!	!	!
.	.	.	.	.	.	.	.	.	.	4g/	.	4g/	.	.	.	16b-/LL]	.	[4ee-\	.
.	.	.	.	.	.	.	.	.	.	.	.	.	.	.	.	(16a-/	.	.	.
.	.	.	.	.	.	.	.	.	.	.	.	.	.	.	.	16b-/	.	.	.
.	.	.	.	.	.	.	.	.	.	.	.	.	.	.	.	16g/JJ)	.	.	.
=30	=30	=30	=30	=30	=30	=30	=30	=30	=30	=30	=30	=30	=30	=30	=30	=30	=30	=30	=30
.	.	00r	.	.	.	.	.	.	.	4f/	.	4f/	.	00r	00r	2.a-/	.	(8ee-\L]	.
.	.	.	.	.	.	.	.	.	.	.	.	.	.	.	.	.	.	8cc#X\J)	.
.	.	.	.	.	.	.	.	.	.	.	.	.	.	.	.	.	.	(8qqcc#/	.
.	.	.	.	.	.	.	.	.	.	4f/	.	4f/	.	.	.	.	.	4dd\)	.
.	.	.	.	.	.	.	.	.	.	4f/	.	4f/	.	.	.	.	.	(16dd\LL	.
.	.	.	.	.	.	.	.	.	.	.	.	.	.	.	.	.	.	16ff\	.
.	.	.	.	.	.	.	.	.	.	.	.	.	.	.	.	.	.	16aa-\	.
.	.	.	.	.	.	.	.	.	.	.	.	.	.	.	.	.	.	16gg\JJ)	.
.	.	.	.	.	.	.	.	.	.	4f#X/	.	4f#X/	.	.	.	4an/	.	(16ff\LL	.
.	.	.	.	.	.	.	.	.	.	.	.	.	.	.	.	.	.	16ee-\)	.
.	.	.	.	.	.	.	.	.	.	.	.	.	.	.	.	.	.	(16dd\	.
.	.	.	.	.	.	.	.	.	.	.	.	.	.	.	.	.	.	16cc#\JJ)	.
=31	=31	=31	=31	=31	=31	=31	=31	=31	=31	=31	=31	=31	=31	=31	=31	=31	=31	=31	=31
.	.	.	.	.	.	.	.	.	.	.	.	.	.	.	.	.	.	8qqbn/	fp
00r	.	.	00r	00r	00r	00r	4G\	n3	.	4G/ 4d/ 4bn/ 4gg/	f	4G/ 4d/ 4bn/ 4gg/	f	.	.	[>1g/	fp	[1gg\	.
.	.	.	.	.	.	.	4c\	3	.	8.r	.	8.r	.	.	.	.	.	.	.
!	!	!	!	!	!	!	!	!	!	!LO:TX:a:t=|	!	!LO:TX:a:t=|	!	!	!	!	!	!	!
.	.	.	.	.	.	.	.	.	.	16ee-\	p	16ee-\	p	.	.	.	.	.	.
.	.	.	.	.	.	.	4Bn\	6	.	(8ee-\L	.	(8ee-T\L	.	.	.	.	.	.	.
.	.	.	.	.	.	.	.	.	.	8dd\)	.	8dd\)	.	.	.	.	.	.	.
.	.	.	.	.	.	.	4A-X\	7	.	(8dd\	.	(8ddt\	.	.	.	.	.	.	.
.	.	.	.	.	.	.	.	.	.	8cc\J)	.	8cc\J)	.	.	.	.	.	.	.
=32	=32	=32	=32	=32	=32	=32	=32	=32	=32	=32	=32	=32	=32	=32	=32	=32	=32	=32	=32
!	!	!	!	!	!	!	!	!	!	!	!	!	!LO:DY:t=for.	!	!	!	!	!	!
.	.	.	.	.	.	.	4G\	n3	.	4G/ 4d/ 4bn/ 4gg/	f	4G/ 4d/ 4bn/ 4gg/	f	.	.	1g/_	fp	1gg\_	fp
.	.	.	.	.	.	.	4c\	3	.	8.r	.	8.r	.	.	.	.	.	.	.
!	!	!	!	!	!	!	!	!	!	!LO:TX:a:t=|	!	!LO:TX:a:t=|	!	!	!	!	!	!	!
.	.	.	.	.	.	.	.	.	.	16ee-\	.	16ee-\	p	.	.	.	.	.	.
.	.	.	.	.	.	.	4Bn\	6	.	(8ee-\L	.	(8ee-T\L	.	.	.	.	.	.	.
.	.	.	.	.	.	.	.	.	.	8dd\)	.	8dd\)	.	.	.	.	.	.	.
.	.	.	.	.	.	.	4A-X\	7	.	(8dd\	.	(8ddt\	.	.	.	.	.	.	.
.	.	.	.	.	.	.	.	.	.	8cc\J)	.	8cc\J)	.	.	.	.	.	.	.
!	!	!	!	!	!	!	!	!	!	!	!	!LO:LB:g=original	!	!	!	!	!	!	!
=33	=33	=33	=33	=33	=33	=33	=33	=33	=33	=33	=33	=33	=33	=33	=33	=33	=33	=33	=33
.	.	.	.	.	.	.	4G\	n	.	4G/ 4d/ 4bn/ 4gg/	f	4G/ 4d/ 4bn/ 4gg/	.	.	.	1g/]	fp	1gg\]	fp
.	.	.	.	.	.	.	4c\	3	.	8.r	.	8.r	.	.	.	.	.	.	.
!	!	!	!	!	!	!	!	!	!	!LO:TX:a:t=|	!	!LO:TX:a:t=|	!LO:DY:t=p&colon;	!	!	!	!	!	!
.	.	.	.	.	.	.	.	.	.	16ee-\	p	16ee-\	p	.	.	.	.	.	.
!	!	!	!	!	!	!	!	!	!	!LO:LB:g=original	!	!	!	!	!	!	!	!	!
.	.	.	.	.	.	.	4Bn\	6	.	(8ee-\L	.	(8ee-T\L	.	.	.	.	.	.	.
.	.	.	.	.	.	.	.	.	.	8dd\)	.	8dd\)	.	.	.	.	.	.	.
.	.	.	.	.	.	.	4A-X\	7	.	(8dd\	.	(8ddt\	.	.	.	.	.	.	.
.	.	.	.	.	.	.	.	.	.	8cc\J)	.	8cc\J)	.	.	.	.	.	.	.
!	!	!	!	!	!	!	!	!	!	!	!	!LO:LB:g=original	!	!	!	!LO:LB:g=original	!	!	!
=34	=34	=34	=34	=34	=34	=34	=34	=34	=34	=34	=34	=34	=34	=34	=34	=34	=34	=34	=34
*	*	*	*	*	*	*	*2\right	*	*	*	*	*	*	*	*	*	*	*	*
!	!	!	!	!	!	!	!	!	!	!	!	!	!LO:DY:rj:t=for	!	!	!	!LO:DY:t=for	!	!LO:DY:t=for
.	.	1r	.	.	.	.	2G\	n	.	2G/ 2d/ 2bn/ 2gg/	f	2G/ 2d/ 2bn/ 2gg/	f	1r	1r	2dd\	f	2bbn\	f
.	.	.	.	.	.	.	2r	.	.	4c/	.	16r	.	.	.	2r	.	2r	.
.	.	.	.	.	.	.	.	.	.	.	.	16ee-\LL	.	.	.	.	.	.	.
.	.	.	.	.	.	.	.	.	.	.	.	16dd\	.	.	.	.	.	.	.
.	.	.	.	.	.	.	.	.	.	.	.	16cc\JJ	.	.	.	.	.	.	.
.	.	.	.	.	.	.	.	.	.	4d/	.	(16b-X/LL	.	.	.	.	.	.	.
.	.	.	.	.	.	.	.	.	.	.	.	16a-/	.	.	.	.	.	.	.
.	.	.	.	.	.	.	.	.	.	.	.	16g/	.	.	.	.	.	.	.
.	.	.	.	.	.	.	.	.	.	.	.	16f/JJ)	.	.	.	.	.	.	.
!	!	!	!	!	!	!	!LO:LB:g=original	!	!	!	!	!	!	!LO:LB:g=original	!	!	!	!LO:LB:g=original	!
=35	=35	=35	=35	=35	=35	=35	=35	=35	=35	=35	=35	=35	=35	=35	=35	=35	=35	=35	=35
1r	.	2E-/	1r	1r	1r	1r	8r	.	.	4G/ 4e-/	.	4G/ 4e-/	.	4g/	4ee-\	[1g/	.	[1ee-\	.
!	!	!	!	!	!	!	!LO:TX:a:t=|	!	!	!	!	!	!	!	!	!	!	!	!
.	.	.	.	.	.	.	8E-\L	.	.	.	.	.	.	.	.	.	.	.	.
!	!	!	!	!	!	!	!LO:TX:a:t=|	!	!	!	!	!	!	!	!	!	!	!	!
.	.	.	.	.	.	.	8D\	.	.	8.B-/L	.	8.G/L 8.e-/	.	8.g/L	8.ee-\L	.	.	.	.
!	!	!	!	!	!	!	!LO:TX:a:t=|	!	!	!	!	!	!	!	!	!	!	!	!
.	.	.	.	.	.	.	8E-\J	.	.	.	.	.	.	.	.	.	.	.	.
.	.	.	.	.	.	.	.	.	.	16B-/Jk	.	16G/Jk 16e-/	.	16g/Jk	16ee-\Jk	.	.	.	.
.	.	4.E-/	.	.	.	.	8BB-\L	.	.	4B-/	.	4G/ 4e-/	.	4g/	4ee-\	.	.	.	.
!	!	!	!	!	!	!	!LO:TX:a:t=|	!	!	!	!	!	!	!	!	!	!	!	!
.	.	.	.	.	.	.	8E-\	.	.	.	.	.	.	.	.	.	.	.	.
!	!	!	!	!	!	!	!LO:TX:a:t=|	!	!	!	!	!	!	!	!	!	!	!	!
.	.	.	.	.	.	.	8GG\	.	.	4B-/	.	4G/ 4e-/	.	4g/	4ee-\	.	.	.	.
!	!	!	!	!	!	!	!LO:TX:a:t=|	!	!	!	!	!	!	!	!	!	!	!	!
.	.	8E-/	.	.	.	.	8BB-\J	.	.	.	.	.	.	.	.	.	.	.	.
=36	=36	=36	=36	=36	=36	=36	=36	=36	=36	=36	=36	=36	=36	=36	=36	=36	=36	=36	=36
8r	.	2E-/	4g/	4ee-\	4g/	4ee-\	2EE-/	.	.	2B-/	.	2Gt/ 2e-t/	.	2g/	2ee-\	2g/]	.	2ee-\]	.
8E-\L	.	.	.	.	.	.	.	.	.	.	.	.	.	.	.	.	.	.	.
8D\	.	.	8g/L	8ee-\L	8.g/L	8.ee-\L	.	.	.	.	.	.	.	.	.	.	.	.	.
8E-\J	.	.	8g/J	8ee-\J	.	.	.	.	.	.	.	.	.	.	.	.	.	.	.
.	.	.	.	.	16g/Jk	16ee-\Jk	.	.	.	.	.	.	.	.	.	.	.	.	.
8BB-/L	.	2r	4g/	4ee-\	4g/	4ee-\	4E-\	.	.	2r	.	2r	.	2r	2r	2r	.	2r	.
8E-/	.	.	.	.	.	.	.	.	.	.	.	.	.	.	.	.	.	.	.
8GG/	.	.	4g/	4ee-\	4g/	4ee-\	8G\L	6	.	.	.	.	.	.	.	.	.	.	.
8BB-/J	.	.	.	.	.	.	8B-\J	7	.	.	.	.	.	.	.	.	.	.	.
!LO:LB:g=original	!	!LO:LB:g=original	!	!	!	!	!	!	!	!	!	!	!	!	!LO:LB:g=original	!	!	!	!
=37	=37	=37	=37	=37	=37	=37	=37	=37	=37	=37	=37	=37	=37	=37	=37	=37	=37	=37	=37
!	!	!	!	!	!	!	!	!	!LO:DY:t=for&colon;	!	!	!	!	!	!	!	!	!	!
2EE-/	.	2E-/	2g/	2ee-\	2g/	2ee-\	8r	.	f	4G/ 4e-/	.	4B-/ 4g/	.	4ee-\	4gg\	[1ee-\	.	[1gg\	.
.	.	.	.	.	.	.	8E-\L	.	.	.	.	.	.	.	.	.	.	.	.
.	.	.	.	.	.	.	8D\	.	.	8.G/L 8.e-/	.	8.B-/L 8.g/	.	8.ee-\L	8.gg\L	.	.	.	.
.	.	.	.	.	.	.	8E-\J	.	.	.	.	.	.	.	.	.	.	.	.
.	.	.	.	.	.	.	.	.	.	16G/Jk 16e-/	.	16B-/Jk 16g/	.	16ee-\Jk	16gg\Jk	.	.	.	.
2r	.	4.E-/	2r	2r	2r	2r	8BB-\L	.	.	4G/ 4e-/	.	4B-/ 4g/	.	4ee-\	4gg\	.	.	.	.
!	!	!	!	!	!	!	!LO:TX:a:t=|	!	!	!	!	!	!	!	!	!	!	!	!
.	.	.	.	.	.	.	8E-\	.	.	.	.	.	.	.	.	.	.	.	.
!	!	!	!	!	!	!	!LO:TX:a:t=|	!	!	!	!	!	!	!	!	!	!	!	!
.	.	.	.	.	.	.	8GG\	.	.	4G/ 4e-/	.	4B-/ 4g/	.	4ee-\	4gg\	.	.	.	.
!	!	!	!	!	!	!	!LO:TX:a:t=|	!	!	!	!	!	!	!	!	!	!	!	!
.	.	8E-/	.	.	.	.	8BB-\J	.	.	.	.	.	.	.	.	.	.	.	.
!	!	!	!LO:LB:g=original	!	!	!	!	!	!	!	!	!	!	!	!	!	!	!	!
=38	=38	=38	=38	=38	=38	=38	=38	=38	=38	=38	=38	=38	=38	=38	=38	=38	=38	=38	=38
8r	.	2E-/	4ee-\	4gg\	4ee-\	4gg\	4EE-/	.	.	2G/ 2e-/	.	2B-T/ 2gt/	.	2ee-\	2gg\	2ee-\]	.	2gg\]	.
8E-\L	.	.	.	.	.	.	.	.	.	.	.	.	.	.	.	.	.	.	.
8D\	.	.	8ee-\L	8gg\L	8.ee-\L	8.gg\L	4E-\	.	p	.	.	.	.	.	.	.	.	.	.
8E-\J	.	.	8ee-\J	8gg\J	.	.	.	.	.	.	.	.	.	.	.	.	.	.	.
.	.	.	.	.	16ee-\Jk	16gg\Jk	.	.	.	.	.	.	.	.	.	.	.	.	.
8BB-/L	.	2r	4ee-\	4gg\	4ee-\	4gg\	4G\	6	.	2r	.	2r	.	2r	2r	2r	.	2r	.
8E-/	.	.	.	.	.	.	.	.	.	.	.	.	.	.	.	.	.	.	.
8GG/	.	.	4ee-\	4gg\	4ee-\	4gg\	4B-\	7	.	.	.	.	.	.	.	.	.	.	.
8BB-/J	.	.	.	.	.	.	.	.	.	.	.	.	.	.	.	.	.	.	.
!	!	!	!	!LO:LB:g=original	!	!	!	!	!	!	!	!LO:LB:g=original	!	!	!	!	!	!	!
=39	=39	=39	=39	=39	=39	=39	=39	=39	=39	=39	=39	=39	=39	=39	=39	=39	=39	=39	=39
*	*	*	*	*	*	*	*	*	*	*	*	*^	*	*	*	*	*	*	*
2EE-/	.	2E-/	2ee-\	2gg\	2ee-\	2gg\	8r	.	f	4B-/ 4g/	.	4b-/	4g\	.	4gg\	4bb-\	[1gg\	.	[1bb-\	.
.	.	.	.	.	.	.	8E-\L	.	.	.	.	.	.	.	.	.	.	.	.	.
.	.	.	.	.	.	.	8D\	.	.	8.B-/L 8.g/	.	8.b-/L	8.g\L	.	8.gg\L	8.bb-\L	.	.	.	.
.	.	.	.	.	.	.	8E-\J	.	.	.	.	.	.	.	.	.	.	.	.	.
.	.	.	.	.	.	.	.	.	.	16B-/Jk 16g/	.	16b-/Jk	16g\Jk	.	16gg\Jk	16bb-\Jk	.	.	.	.
2r	.	4.E-/	2r	2r	2r	2r	8BB-\L	.	.	4B-/ 4g/	.	4b-/	4g\	.	4gg\	4bb-\	.	.	.	.
.	.	.	.	.	.	.	8E-\	.	.	.	.	.	.	.	.	.	.	.	.	.
.	.	.	.	.	.	.	8GG\	.	.	4B-/ 4g/	.	4b-/	4g\	.	4gg\	4bb-\	.	.	.	.
.	.	8E-/	.	.	.	.	8BB-\J	.	.	.	.	.	.	.	.	.	.	.	.	.
!	!	!	!	!	!LO:LB:g=original	!LO:LB:g=original	!	!	!	!LO:LB:g=original	!	!	!	!	!LO:LB:g=original	!	!	!	!	!
=40	=40	=40	=40	=40	=40	=40	=40	=40	=40	=40	=40	=40	=40	=40	=40	=40	=40	=40	=40	=40
8r	.	2E-/	4gg\	4bb-\	4gg\	4bb-\	4EE-/	.	.	2B-/ 2g/	.	2b-T/	2gt>\	.	2gg\	2bb-\	2gg\]	.	2bb-\]	.
8e-\L	.	.	.	.	.	.	.	.	.	.	.	.	.	.	.	.	.	.	.	.
8d\	.	.	8gg\L	8bb-\L	8.gg\L	8.bb-\L	4E-\	.	p	.	.	.	.	.	.	.	.	.	.	.
8e-\J	.	.	8gg\J	8bb-\J	.	.	.	.	.	.	.	.	.	.	.	.	.	.	.	.
.	.	.	.	.	16gg\Jk	16bb-\Jk	.	.	.	.	.	.	.	.	.	.	.	.	.	.
8B-\L	.	2r	4gg\	4bb-\	4gg\	4bb-\	4G\	6	.	2r	.	2r	2ryy	.	2r	2r	2r	.	2r	.
8e-\	.	.	.	.	.	.	.	.	.	.	.	.	.	.	.	.	.	.	.	.
8G\	.	.	4gg\	4bb-\	4gg\	4bb-\	4B-\	7	.	.	.	.	.	.	.	.	.	.	.	.
8B-\J	.	.	.	.	.	.	.	.	.	.	.	.	.	.	.	.	.	.	.	.
!	!	!	!	!	!	!	!LO:LB:g=original	!	!	!	!	!	!	!	!	!	!	!	!	!
*	*	*	*	*	*	*	*	*	*	*	*	*v	*v	*	*	*	*	*	*	*
=41	=41	=41	=41	=41	=41	=41	=41	=41	=41	=41	=41	=41	=41	=41	=41	=41	=41	=41	=41
4E-\	5 3	4E-/	1ee-\	1gg\	2.ee-\	[2.gg\	4E-\	.	.	8B-/ 8g/	f	(16e-T/LL	.	1ee-\	1gg\	1b-\	.	1gg\	.
.	.	.	.	.	.	.	.	.	.	.	.	16d/)	.	.	.	.	.	.	.
.	.	.	.	.	.	.	.	.	.	4B-/ 4g/	.	16e-/	.	.	.	.	.	.	.
!	!	!	!	!	!	!	!	!	!	!	!	!LO:TX:b:t=|	!	!	!	!	!	!	!
.	.	.	.	.	.	.	.	.	.	.	.	16B-/JJ	.	.	.	.	.	.	.
!	!	!	!	!	!	!	!	!	!LO:DY:t=for	!	!	!	!	!	!	!	!	!	!
4E-\	_ _	4r	.	.	.	.	4E-\	.	f	.	.	(16G/LL	.	.	.	.	.	.	.
.	.	.	.	.	.	.	.	.	.	.	.	16B-/)	.	.	.	.	.	.	.
!	!	!	!	!	!	!	!	!	!	!	!	!LO:TX:b:t=|	!	!	!	!	!	!	!
.	.	.	.	.	.	.	.	.	.	4B-/ 4g/	.	16e-/	.	.	.	.	.	.	.
!	!	!	!	!	!	!	!	!	!	!	!	!LO:TX:b:t=|	!	!	!	!	!	!	!
.	.	.	.	.	.	.	.	.	.	.	.	16g/JJ	.	.	.	.	.	.	.
4E-\	.	4E-/	.	.	.	.	4E-\	.	.	.	.	(16B-/LL	.	.	.	.	.	.	.
.	x	.	.	.	.	.	.	.	.	.	.	16e-/)	.	.	.	.	.	.	.
!	!	!	!	!	!	!	!	!	!	!	!	!LO:TX:b:t=|	!	!	!	!	!	!	!
.	.	.	.	.	.	.	.	.	.	4B-/ 4g/	.	16g/	.	.	.	.	.	.	.
!	!	!	!	!	!	!	!	!	!	!	!	!LO:TX:b:t=|	!	!	!	!	!	!	!
.	.	.	.	.	.	.	.	.	.	.	.	16b-/JJ	.	.	.	.	.	.	.
4E-\	.	4r	.	.	4ee-\	4gg\]	4E-\	.	.	.	.	(16e-/LL	.	.	.	.	.	.	.
.	.	.	.	.	.	.	.	.	.	.	.	16g/)	.	.	.	.	.	.	.
!	!	!	!	!	!	!	!	!	!	!	!	!LO:TX:b:t=|	!	!	!	!	!	!	!
.	.	.	.	.	.	.	.	.	.	8B-/ 8g/	.	16b-/	.	.	.	.	.	.	.
!	!	!	!	!	!	!	!	!	!	!	!	!LO:TX:b:t=|	!	!	!	!	!	!	!
.	.	.	.	.	.	.	.	.	.	.	.	16ee-/JJ	.	.	.	.	.	.	.
!LO:LB:g=original	!	!	!	!	!	!	!	!	!	!	!	!	!	!	!	!	!	!	!
=42	=42	=42	=42	=42	=42	=42	=42	=42	=42	=42	=42	=42	=42	=42	=42	=42	=42	=42	=42
4E-\	6 4	4E-/	1ff\	1aa-\	2.ff\	[2.aa-\	4E-\	6 4	.	8c/ 8a-/	.	(16e-T/LL	.	1ff\	1aa-\	1cc\	.	1aa-\	.
.	.	.	.	.	.	.	.	.	.	.	.	16d/)	.	.	.	.	.	.	.
.	.	.	.	.	.	.	.	.	.	4c/ 4a-/	.	(16e-/	.	.	.	.	.	.	.
!	!	!	!	!	!	!	!	!	!	!	!	!LO:TX:b:t=|	!	!	!	!	!	!	!
.	.	.	.	.	.	.	.	.	.	.	.	16c/JJ)	.	.	.	.	.	.	.
4E-\	_ _	4r	.	.	.	.	4E-\	.	.	.	.	(16A-/LL	.	.	.	.	.	.	.
.	.	.	.	.	.	.	.	.	.	.	.	16c/)	.	.	.	.	.	.	.
!	!	!	!	!	!	!	!	!	!	!	!	!LO:TX:b:t=|	!	!	!	!	!	!	!
.	.	.	.	.	.	.	.	.	.	4c/ 4a-/	.	16e-/	.	.	.	.	.	.	.
!	!	!	!	!	!	!	!	!	!	!	!	!LO:TX:b:t=|	!	!	!	!	!	!	!
.	.	.	.	.	.	.	.	.	.	.	.	16a-/JJ	.	.	.	.	.	.	.
4E-\	x	4E-/	.	.	.	.	4E-\	.	.	.	.	(16c/LL	.	.	.	.	.	.	.
.	.	.	.	.	.	.	.	.	.	.	.	16e-/)	.	.	.	.	.	.	.
!	!	!	!	!	!	!	!	!	!	!	!	!LO:TX:b:t=|	!	!	!	!	!	!	!
.	.	.	.	.	.	.	.	.	.	4c/ 4a-/	.	16a-/	.	.	.	.	.	.	.
!	!	!	!	!	!	!	!	!	!	!	!	!LO:TX:b:t=|	!	!	!	!	!	!	!
.	.	.	.	.	.	.	.	.	.	.	.	16cc/JJ	.	.	.	.	.	.	.
4E-\	.	4r	.	.	4ff\	4aa-\]	4E-\	.	.	.	.	(16e-/LL	.	.	.	.	.	.	.
.	.	.	.	.	.	.	.	.	.	.	.	16a-/)	.	.	.	.	.	.	.
!	!	!	!	!	!	!	!	!	!	!	!	!LO:TX:b:t=|	!	!	!	!	!	!	!
.	.	.	.	.	.	.	.	.	.	8c/ 8a-/	.	16cc/	.	.	.	.	.	.	.
!	!	!	!	!	!	!	!	!	!	!	!	!LO:TX:b:t=|	!	!	!	!	!	!	!
.	.	.	.	.	.	.	.	.	.	.	.	16ee-/JJ	.	.	.	.	.	.	.
!	!	!	!	!	!	!	!	!	!	!	!	!	!	!	!LO:LB:g=original	!	!	!	!
=43	=43	=43	=43	=43	=43	=43	=43	=43	=43	=43	=43	=43	=43	=43	=43	=43	=43	=43	=43
4E-\	5 3	4E-/	1ee-\	1gg\	2.ee-\	[2.gg\	4E-\	5 3	.	8B-/ 8g/	.	(16e-T/LL	.	1ee-\	1gg\	1b-\	.	1gg\	.
.	.	.	.	.	.	.	.	.	.	.	.	16d/)	.	.	.	.	.	.	.
.	.	.	.	.	.	.	.	.	.	4B-/ 4g/	.	16e-/	.	.	.	.	.	.	.
.	.	.	.	.	.	.	.	.	.	.	.	16B-/JJ	.	.	.	.	.	.	.
!	!	!	!	!	!	!	!	!	!	!	!	!LO:LB:g=original	!	!	!	!	!	!	!
4E-\	_ _	4r	.	.	.	.	4E-\	.	.	.	.	(16G/LL	.	.	.	.	.	.	.
.	.	.	.	.	.	.	.	.	.	.	.	16B-/)	.	.	.	.	.	.	.
!	!	!	!	!	!	!	!	!	!	!	!	!LO:TX:b:t=|	!	!	!	!	!	!	!
.	.	.	.	.	.	.	.	.	.	4B-/ 4g/	.	16e-/	.	.	.	.	.	.	.
!	!	!	!	!	!	!	!	!	!	!	!	!LO:TX:b:t=|	!	!	!	!	!	!	!
.	.	.	.	.	.	.	.	.	.	.	.	16g/JJ	.	.	.	.	.	.	.
4E-\	x	4E-/	.	.	.	.	4E-\	.	.	.	.	(16B-/LL	.	.	.	.	.	.	.
.	.	.	.	.	.	.	.	.	.	.	.	16e-/)	.	.	.	.	.	.	.
!	!	!	!	!	!	!	!	!	!	!	!	!LO:TX:b:t=|	!	!	!	!	!	!	!
.	.	.	.	.	.	.	.	.	.	4B-/ 4g/	.	16g/	.	.	.	.	.	.	.
!	!	!	!	!	!	!	!	!	!	!	!	!LO:TX:b:t=|	!	!	!	!	!	!	!
.	.	.	.	.	.	.	.	.	.	.	.	16b-/JJ	.	.	.	.	.	.	.
4E-\	.	4r	.	.	4ee-\	4gg\]	4E-\	.	.	.	.	(16e-/LL	.	.	.	.	.	.	.
.	.	.	.	.	.	.	.	.	.	.	.	16g/)	.	.	.	.	.	.	.
!	!	!	!	!	!	!	!	!	!	!	!	!LO:TX:b:t=|	!	!	!	!	!	!	!
.	.	.	.	.	.	.	.	.	.	8B-/ 8g/	.	16b-/	.	.	.	.	.	.	.
!	!	!	!	!	!	!	!	!	!	!	!	!LO:TX:b:t=|	!	!	!	!	!	!	!
.	.	.	.	.	.	.	.	.	.	.	.	16ee-/JJ	.	.	.	.	.	.	.
!	!	!LO:LB:g=original	!	!	!	!	!	!	!	!	!	!	!	!	!	!	!	!	!
=44	=44	=44	=44	=44	=44	=44	=44	=44	=44	=44	=44	=44	=44	=44	=44	=44	=44	=44	=44
*	*	*	*	*	*	*	*	*	*	*	*	*^	*	*	*	*	*	*	*
4C/	n6 4 3	1r	1ff\	1aaX\	2.cc\	2.aa\	4C/	6 4 3	.	(16f/LL	.	1an/	(>16e-\LL	.	1ff\	1aaX\	1cc\	.	1aan\	.
.	.	.	.	.	.	.	.	.	.	16e-/	.	.	16f\	.	.	.	.	.	.	.
.	.	.	.	.	.	.	.	.	.	16f/	.	.	16e-\	.	.	.	.	.	.	.
.	.	.	.	.	.	.	.	.	.	16e-/JJ	.	.	16f\JJ	.	.	.	.	.	.	.
8.C/L	_ _ _	.	.	.	.	.	8.C/L	.	.	16f/LL	.	.	16e-\LL	.	.	.	.	.	.	.
.	.	.	.	.	.	.	.	.	.	16e-/	.	.	16f\	.	.	.	.	.	.	.
.	.	.	.	.	.	.	.	.	.	16f/	.	.	16e-\)	.	.	.	.	.	.	.
16C/Jk	x	.	.	.	.	.	16C/Jk	.	.	16e-/JJ)	.	.	16f\JJ	.	.	.	.	.	.	.
4C/	.	.	.	.	.	.	4C/	.	.	16f/LL	.	.	16e-\LL	.	.	.	.	.	.	.
.	.	.	.	.	.	.	.	.	.	(16e-/	.	.	(>16f\	.	.	.	.	.	.	.
.	.	.	.	.	.	.	.	.	.	16f/	.	.	16e-\	.	.	.	.	.	.	.
.	.	.	.	.	.	.	.	.	.	16e-/JJ	.	.	16f\JJ	.	.	.	.	.	.	.
4C/	.	.	.	.	4cc\	4aa\	4C/	.	.	16f/LL	.	.	16e-\LL	.	.	.	.	.	.	.
.	.	.	.	.	.	.	.	.	.	16e-/	.	.	16f\	.	.	.	.	.	.	.
.	.	.	.	.	.	.	.	.	.	16f/	.	.	16e-\	.	.	.	.	.	.	.
.	.	.	.	.	.	.	.	.	.	16e-/JJ)	.	.	16f\JJ)	.	.	.	.	.	.	.
!	!	!	!LO:LB:g=original	!	!	!	!	!	!	!LO:LB:g=original	!	!	!	!	!	!	!LO:LB:g=original	!	!LO:LB:g=original	!
=45	=45	=45	=45	=45	=45	=45	=45	=45	=45	=45	=45	=45	=45	=45	=45	=45	=45	=45	=45	=45
.	6	.	.	.	.	.	.	.	.	.	.	.	.	.	.	.	.	.	.	.
4BB-/	7 5	4BB-/	2.ff\	2.aa-\	2.ff\	2.aa-X\	4BB-/	7	.	16f/LL	.	1b-/	(>16d\LL	.	2.ff\	2.aa-\	1ff\	.	1aa-X\	.
.	.	.	.	.	.	.	.	.	.	(16d/	.	.	16f\	.	.	.	.	.	.	.
.	.	.	.	.	.	.	.	-	.	16f/	.	.	16a-X\	.	.	.	.	.	.	.
.	.	.	.	.	.	.	.	.	.	16d/JJ	.	.	16f\	.	.	.	.	.	.	.
8.BB-/L	_ _	8.BB-/L	.	.	.	.	8.BB-/L	.	.	16f/LL	.	.	16a-\	.	.	.	.	.	.	.
.	.	.	.	.	.	.	.	.	.	16d/	.	.	16f\	.	.	.	.	.	.	.
.	.	.	.	.	.	.	.	.	.	16f/	.	.	16a-\	.	.	.	.	.	.	.
16BB-/Jk	x	16BB-/Jk	.	.	.	.	16BB-/Jk	.	.	16d/JJ)	.	.	16f\JJ)	.	.	.	.	.	.	.
4BB-/	.	4BB-/	.	.	.	.	4BB-/	.	.	16f/LL	.	.	(>16d\LL	.	.	.	.	.	.	.
.	.	.	.	.	.	.	.	.	.	(16d/	.	.	16f\	.	.	.	.	.	.	.
.	.	.	.	.	.	.	.	.	.	16f/	.	.	16a-\	.	.	.	.	.	.	.
.	.	.	.	.	.	.	.	.	.	16d/JJ	.	.	16f\JJ	.	.	.	.	.	.	.
4BB-/	.	4BB-/	4ff\	4aa-\	4ff\	4aa-\	4BB-/	.	.	16f/LL	.	.	16a-\LL	.	4ff\	4aa-\	.	.	.	.
.	.	.	.	.	.	.	.	.	.	16d/	.	.	16f\	.	.	.	.	.	.	.
.	.	.	.	.	.	.	.	.	.	16f/	.	.	16a-\	.	.	.	.	.	.	.
.	.	.	.	.	.	.	.	.	.	16d/JJ)	.	.	16f\JJ)	.	.	.	.	.	.	.
*	*	*	*	*	*	*	*	*	*	*	*	*v	*v	*	*	*	*	*	*	*
!LO:LB:g=original	!	!	!	!LO:LB:g=original	!LO:LB:g=original	!LO:LB:g=original	!	!	!	!	!	!	!	!	!	!	!	!	!
=46	=46	=46	=46	=46	=46	=46	=46	=46	=46	=46	=46	=46	=46	=46	=46	=46	=46	=46	=46
4E-\	.	2E-/	4ee-\	4gg\	4b-\	4gg\	4E-\	.	.	4e-/	.	(16f#X/LL	.	4ee-\	4gg\	4ee-\	.	4gg\	.
.	.	.	.	.	.	.	.	.	.	.	.	16g/)	.	.	.	.	.	.	.
.	.	.	.	.	.	.	.	.	.	.	.	(16ee-/	.	.	.	.	.	.	.
.	.	.	.	.	.	.	.	.	.	.	.	16b-/JJ)	.	.	.	.	.	.	.
!	!	!	!	!	!	!	!	!	!	!	!	!LO:LB:g=original	!	!	!	!	!	!	!
4r	.	.	4r	4r	4r	4r	4A-\	6 5	.	2e-/	.	(16bn\LL	.	4r	4r	2ee-\	.	4aa-\	.
.	.	.	.	.	.	.	.	.	.	.	.	16cc\)	.	.	.	.	.	.	.
.	.	.	.	.	.	.	.	.	.	.	.	(16a-\	.	.	.	.	.	.	.
.	.	.	.	.	.	.	.	.	.	.	.	16f#\JJ)	.	.	.	.	.	.	.
2r	.	4BB-/	2r	2r	2r	2r	4B-\	6 4	.	.	.	4B-/	.	4b-/	4b-/	.	.	(32gg\LLL	.
.	.	.	.	.	.	.	.	.	.	.	.	.	.	.	.	.	.	32ff\JJ)	.
.	.	.	.	.	.	.	.	.	.	.	.	.	.	.	.	.	.	8.ee-\J	.
.	.	.	.	.	.	.	.	.	.	.	.	(16qqe-/LL	.	.	.	.	.	.	.
.	.	.	.	.	.	.	.	.	.	.	.	16qqf#/JJ)	.	.	.	.	.	.	.
.	.	4BB-/	.	.	.	.	4BB-/	7 3	.	4dt/	.	4f#t/	.	4b-/	4ff\	4ddt\	.	4ffT\	.
!	!	!	!	!	!	!	!LO:LB:g=original	!	!	!	!	!	!	!	!	!	!	!	!
=47	=47	=47	=47	=47	=47	=47	=47	=47	=47	=47	=47	=47	=47	=47	=47	=47	=47	=47	=47
*	*	*	*	*	*	*Xtuplet	*	*	*	*	*	*	*	*	*	*	*	*	*
.	.	.	.	.	.	.	.	.	.	8qqd/	.	8qqf/	.	.	.	.	.	.	.
4E-\	.	2E-/	4ee-\	4gg\	[4ee-\	12gg\L	2E-\	.	.	2e-/	.	2e-/	.	2g/	2ee-\	2ee-\	.	2ee-\	.
.	.	.	.	.	.	12aa-\	.	.	.	.	.	.	.	.	.	.	.	.	.
.	.	.	.	.	.	12bb-\J	.	.	.	.	.	.	.	.	.	.	.	.	.
4A-\	.	.	4ff\	4aa-\	8ee-\L]	12ccc\L	.	.	.	.	.	.	.	.	.	.	.	.	.
.	.	.	.	.	.	12aa-\	.	.	.	.	.	.	.	.	.	.	.	.	.
.	.	.	.	.	8a-\J	.	.	.	.	.	.	.	.	.	.	.	.	.	.
.	.	.	.	.	.	12ff\J	.	.	.	.	.	.	.	.	.	.	.	.	.
4B-\	.	2r	4ee-\	4gg\	4g/	4ee-\	2r	.	.	2r	.	2r	.	2r	2r	2r	.	2r	.
4BB-/	.	.	4b-/	4ff\	4a-/	4ffT\	.	.	.	.	.	.	.	.	.	.	.	.	.
!	!	!	!	!	!	!	!	!	!	!	!	!	!	!LO:LB:g=original	!	!	!	!	!
=48	=48	=48	=48	=48	=48	=48	=48	=48	=48	=48	=48	=48	=48	=48	=48	=48	=48	=48	=48
!	!	!LO:TX:a:t=3	!	!	!	!	!LO:TX:a:t=2	!	!	!	!	!	!	!	!	!	!	!	!
2E-\	.	0r	2g/	2ee-\	2g/	2ee-\	0r	.	.	4r	p	4r	.	4r	4r	4r	.	4r	.
!	!	!	!	!	!	!	!	!	!	!	!	!	!	!	!	!LO:TUP:a:problem:klamra łukowa	!	!LO:TUP:a:problem:klamra łukowa	!
.	.	.	.	.	.	.	.	.	.	8e-/L	.	8e-/L	p	4ff\	4aa-\	24ee-\LL	.	24gg\LL	.
.	.	.	.	.	.	.	.	.	.	.	.	.	.	.	.	24ff	.	24aa-\	.
.	.	.	.	.	.	.	.	.	.	.	.	.	.	.	.	24ggJJ	.	24bb-\JJ	.
!	!	!	!	!	!	!	!	!	!	!	!	!	!	!	!	!	!	!LO:TUP:a:problem:klamra łukowa	!
.	.	.	.	.	.	.	.	.	.	.	.	.	.	.	.	.	.	8qqddd/	.
!	!	!	!	!	!	!	!	!	!	!	!	!	!	!	!	!LO:TUP:a:problem:klamra łukowa	!	!	!
.	.	.	.	.	.	.	.	.	.	8A-/J	.	8A-/J	.	.	.	24aa-\LL	.	24ccc\LL	.
.	.	.	.	.	.	.	.	.	.	.	.	.	.	.	.	24gg	.	24bb-\	.
.	.	.	.	.	.	.	.	.	.	.	.	.	.	.	.	24ffJJ	.	24aa-\JJ	.
2r	.	.	2r	2r	2r	2r	.	.	.	4B-/	.	4B-/	.	4ee-\	4gg\	4ee-\	.	4gg\	.
.	.	.	.	.	.	.	.	.	.	4B-/	.	4B-/	.	4b-/	4ff\	4ddt\	.	4ffT\	.
=49	=49	=49	=49	=49	=49	=49	=49	=49	=49	=49	=49	=49	=49	=49	=49	=49	=49	=49	=49
.	.	.	.	.	.	.	.	.	.	.	.	.	.	.	.	8qqdd/	.	8qqff#X/	.
4E-\	.	.	4r	4r	4r	4r	.	.	.	2e-/	.	2e-/	.	2g/	2ee-\	2ee-\	.	2gg\	.
4A-\	.	.	4ff\	4aa-\	16ee-\LL	16gg\LL	.	.	.	.	.	.	.	.	.	.	.	.	.
.	.	.	.	.	16gg\	16bb-\	.	.	.	.	.	.	.	.	.	.	.	.	.
.	.	.	.	.	16aa-\	16ccc\	.	.	.	.	.	.	.	.	.	.	.	.	.
.	.	.	.	.	16ff\JJ	16aa-\JJ	.	.	.	.	.	.	.	.	.	.	.	.	.
4B-\	.	.	4ee-\	4gg\	4ee-\	4gg\	.	.	.	2r	.	2r	.	2r	2r	2r	.	2r	.
4BB-/	.	.	4b-/	4ff\	4dd\	4ff\	.	.	.	.	.	.	.	.	.	.	.	.	.
!	!	!	!	!	!	!	!	!	!	!	!	!	!	!	!LO:LB:g=original	!	!	!	!
=50	=50	=50	=50	=50	=50	=50	=50	=50	=50	=50	=50	=50	=50	=50	=50	=50	=50	=50	=50
4E-\	.	1r	4g/	4ee-\	4ee-\	2gg\	4r	.	p	4r	.	4r	.	4r	4r	4r	.	4r	.
!	!	!	!	!	!	!	!	!	!	!	!	!	!	!	!	!LO:TUP:a:problem:klamra łukowa	!	!LO:TUP:a:problem:klamra łukowa	!
4r	.	.	4r	4r	4r	.	8E-\L	.	.	8e-/L	.	8e-/L	.	4ff\	4aa-\	24ee-\LL	.	24gg\LL	.
.	.	.	.	.	.	.	.	.	.	.	.	.	.	.	.	24ff\	.	24aa-\	.
.	.	.	.	.	.	.	.	.	.	.	.	.	.	.	.	24gg\JJ	.	24bb-\JJ	.
.	.	.	.	.	.	.	.	.	.	.	.	.	.	.	.	8qqbb-/	.	8qqddd/	.
!	!	!	!	!	!	!	!	!	!	!	!	!	!	!	!	!LO:TUP:a:problem:klamra łukowa	!	!LO:TUP:a:problem:klamra łukowa	!
.	.	.	.	.	.	.	8AA-\J	6	.	8B-/J	.	8A-/J	.	.	.	24aa-\LL	.	24ccc\LL	.
.	.	.	.	.	.	.	.	.	.	.	.	.	.	.	.	24gg\	.	24bb-\	.
.	.	.	.	.	.	.	.	.	.	.	.	.	.	.	.	24ff\JJ	.	24aa-\JJ	.
2r	.	.	2r	2r	2r	2r	4BB-/	6 4	.	4B-/	.	4B-/	.	4ee-\	4gg\	4ee-\	.	(32gg\LLL	.
.	.	.	.	.	.	.	.	.	.	.	.	.	.	.	.	.	.	32ff\JJ)	.
.	.	.	.	.	.	.	.	.	.	.	.	.	.	.	.	.	.	8.ee-\J	.
!	!	!	!	!	!	!	!	!	!	!	!	!	!	!	!	!	!	!LO:LB:g=original	!
.	.	.	.	.	.	.	4BB-/	7 3	.	4B-/	.	4B-/	.	4b-/	4ff\	4ddt\	.	4ffT\	.
!	!	!	!LO:LB:g=original	!	!LO:LB:g=original	!LO:LB:g=original	!	!	!	!LO:LB:g=original	!	!	!	!	!	!LO:LB:g=original	!	!	!
=51	=51	=51	=51	=51	=51	=51	=51	=51	=51	=51	=51	=51	=51	=51	=51	=51	=51	=51	=51
!	!	!	!	!	!	!	!	!	!LO:DY:t=for	!LO:TX:a:t=P:problem:mixed beam	!LO:DY:t=for	!	!	!	!	!	!LO:DY:a	!	!
2E-\	.	2E-/	[2g/	(2ee-\	2.g/	2.ee-\	2E-\	.	f	8e-/L	f	8d/L 8b-/ 8gg/	.	2.g/	2.ee-\	1g/	fp	1ee-\	fp
!	!	!	!	!	!	!	!	!	!	!	!	!LO:TX:b:t=|	!	!	!	!	!	!	!
.	.	.	.	.	.	.	.	.	.	8gg\J	.	8bb-/J	f	.	.	.	.	.	.
.	.	.	.	.	.	.	.	.	.	8r	.	8r	.	.	.	.	.	.	.
!	!	!	!	!	!	!	!	!	!	!LO:TX:a:t=|	!	!LO:TX:a:t=|	!	!	!	!	!	!	!
.	.	.	.	.	.	.	.	.	.	8ee-\	p	8gg\	p	.	.	.	.	.	.
2r	.	2r	4g/]	4ee-\	.	.	2r	.	.	(8ee-\L	.	(8gg\L	.	.	.	.	.	.	.
.	.	.	.	.	.	.	.	.	.	8b-\)	.	8ee-\)	.	.	.	.	.	.	.
.	.	.	4g/	4ee-\)	4g/	4ee-\	.	.	.	(8b-\	.	(8ee-\	.	4g/	4ee-\	.	.	.	.
.	.	.	.	.	.	.	.	.	.	8g\J)	.	8b-\J)	.	.	.	.	.	.	.
!	!	!	!	!LO:LB:g=original	!	!	!	!	!	!	!	!	!	!	!	!	!	!	!
=52	=52	=52	=52	=52	=52	=52	=52	=52	=52	=52	=52	=52	=52	=52	=52	=52	=52	=52	=52
!	!	!	!	!	!	!	!	!	!	!	!	!LO:TX:a:t=|	!	!	!	!	!	!	!
2E-\	.	2E-/	2ee-\	[2gg\	2.ee-\	2.gg\	2E-\	.	.	8g\L	f	8b-\L	.	2.ee-\	2.gg\	1ee-\	fp	1gg\	fp
!	!	!	!	!	!	!	!	!	!	!	!	!LO:TX:a:t=|	!	!	!	!	!	!	!
.	.	.	.	.	.	.	.	.	.	8ee-\J	.	8gg\J	f	.	.	.	.	.	.
.	.	.	.	.	.	.	.	.	.	8r	.	8r	.	.	.	.	.	.	.
!	!	!	!	!	!	!	!	!	!	!LO:TX:b:t=|	!	!LO:TX:a:t=|	!	!	!	!	!	!	!
.	.	.	.	.	.	.	.	.	.	8g/	p	8ee-\	p	.	.	.	.	.	.
2r	.	2r	4ee-\	4gg\]	.	.	2r	.	.	(8g/L	.	(8ee-\L	.	.	.	.	.	.	.
.	.	.	.	.	.	.	.	.	.	8e-/)	.	8b-\)	.	.	.	.	.	.	.
.	.	.	4ee-\	4gg\	4ee-\	4gg\	.	.	.	(8g/	.	(8b-\	.	4ee-\	4gg\	.	.	.	.
.	.	.	.	.	.	.	.	.	.	8e-/J)	.	8g\J)	.	.	.	.	.	.	.
!LO:LB:g=original	!	!	!	!	!	!	!	!	!	!	!	!LO:LB:g=original	!	!	!	!	!	!	!
=53	=53	=53	=53	=53	=53	=53	=53	=53	=53	=53	=53	=53	=53	=53	=53	=53	=53	=53	=53
!	!	!	!	!	!	!	!	!	!	!	!LO:DY:t=for	!LO:TX:a:t=|	!	!	!	!	!LO:DY:t=fop&colon;	!	!
2E-\	.	2E-/	2gg\	[2bb-\	2.gg\	2.bb-\	2E-\	.	.	8e-/L	f	8g\L	.	2.gg\	2.bb-\	1gg\	fp	1bb-\	fp
!	!	!	!	!	!	!	!	!	!	!	!	!LO:TX:a:t=|	!LO:DY:t=for	!	!	!	!	!	!
.	.	.	.	.	.	.	.	.	.	8g/J	.	8ee-\J	f	.	.	.	.	.	.
.	.	.	.	.	.	.	.	.	.	8r	.	8r	.	.	.	.	.	.	.
!	!	!	!	!	!	!	!	!	!	!	!	!LO:TX:b:t=|	!	!	!	!	!	!	!
.	.	.	.	.	.	.	.	.	.	8g/	.	8b-/	p	.	.	.	.	.	.
2r	.	2r	4gg\	4bb-\]	.	.	2r	.	.	(8g/L	p	(8b-/L	.	.	.	.	.	.	.
.	.	.	.	.	.	.	.	.	.	8e-/)	.	8g/)	.	.	.	.	.	.	.
.	.	.	4gg\	4bb-\	4gg\	4bb-\	.	.	.	(8e-/	.	(8g/	.	4gg\	4bb-\	.	.	.	.
.	.	.	.	.	.	.	.	.	.	8B-/J)	.	8e-/J)	.	.	.	.	.	.	.
!	!	!LO:LB:g=original	!	!	!	!	!	!	!	!	!	!	!	!LO:LB:g=original	!	!	!	!	!
=54	=54	=54	=54	=54	=54	=54	=54	=54	=54	=54	=54	=54	=54	=54	=54	=54	=54	=54	=54
!	!	!	!	!	!	!	!	!	!	!	!	!LO:TX:b:t=|	!	!	!	!	!	!	!
2E-\	.	2E-/	2ee-\	2gg\	1ee-\	1gg\	2E-\	.	.	8G/L	f	8e-/L	.	2ee-\	2gg\	1ee-\	fp	1gg\	fp
!	!	!	!	!	!	!	!	!	!	!LO:TX:b:t=|	!	!LO:TX:b:t=|	!LO:DY:t=for	!	!	!	!	!	!
.	.	.	.	.	.	.	.	.	.	8g/J	.	8b-/J	f	.	.	.	.	.	.
.	.	.	.	.	.	.	.	.	.	8r	.	8r	.	.	.	.	.	.	.
!	!	!	!	!	!	!	!	!	!	!LO:TX:b:t=|	!LO:DY:a	!LO:TX:b:t=|	!	!	!	!	!	!	!
.	.	.	.	.	.	.	.	.	.	8e-/	p	8g/	p	.	.	.	.	.	.
2r	.	2r	4ee-\	4gg\	.	.	2r	.	.	(8e-/L	.	(8g/L	.	4e-/	4gg\	.	.	.	.
.	.	.	.	.	.	.	.	.	.	8B-/)	p	8e-/)	.	.	.	.	.	.	.
.	.	.	4ee-\	4gg\	.	.	.	.	.	(8B-/	.	(8e-/	.	4ee-\	4gg\	.	.	.	.
.	.	.	.	.	.	.	.	.	.	8G/J)	.	8B-/J)	.	.	.	.	.	.	.
!	!	!	!	!	!	!	!	!	!	!	!	!	!	!	!LO:LB:g=original	!	!	!	!
=55	=55	=55	=55	=55	=55	=55	=55	=55	=55	=55	=55	=55	=55	=55	=55	=55	=55	=55	=55
!	!	!	!	!	!	!	!	!	!	!	!	!	!LO:DY:rj:t=for	!	!	!LO:TUP:a:problem:klamra łukowa	!	!LO:TUP:a:problem:klamra łukowa	!
4r	.	4r	4ee-\	4gg\	4ee-\	4gg\	4r	.	.	2G/ 2e-/ 2b-/ 2gg/	f	2B-/ 2e-/ 2b-/ 2gg/	f	4ee-\	4gg\	12ee-\L	.	12gg\L	.
.	.	.	.	.	.	.	.	.	.	.	.	.	.	.	.	12ff\	.	12aa-\	.
.	.	.	.	.	.	.	.	.	.	.	.	.	.	.	.	12gg\J	.	12bb-\J	.
*Xtuplet	*	*	*	*	*	*	*Xtuplet	*	*	*	*	*	*	*	*	*	*	*	*
!	!	!	!	!	!	!	!LO:TX:b:t=Tutti	!	!	!	!	!	!	!	!	!	!	!	!
!LO:TX:a:t=|	!	!	!	!	!	!	!LO:TX:a:t=|	!	!	!	!	!	!	!	!	!	!	!	!
12E-\L	.	4E-/	4r	4r	4r	4r	12E-\L	.	.	.	.	.	.	4r	4r	[4gg\	.	(4bb-\	.
!LO:TX:a:t=|	!	!	!	!	!	!	!LO:TX:a:t=|	!	!	!	!	!	!	!	!	!	!	!	!
12G\	.	.	.	.	.	.	12G\	.	.	.	.	.	.	.	.	.	.	.	.
!LO:TX:a:t=|	!	!	!	!	!	!	!LO:TX:a:t=|	!	!	!	!	!	!	!	!	!	!	!	!
12B-\J	.	.	.	.	.	.	12B-\J	.	.	.	.	.	.	.	.	.	.	.	.
*	*	*	*	*	*	*	*	*	*	*	*	*	*	*	*	*Xtuplet	*	*Xtuplet	*
!LO:TX:a:t=|	!	!	!	!	!	!	!LO:TX:a:t=|	!	!	!	!	!	!	!	!	!	!	!	!
12e-\L	.	4E-/	4gg\	4bb-\	4gg\	4bb-\	12e-\L	.	.	4r	.	4r	.	4gg\	4bb-\	12gg\L]	.	12bb-\L	.
!LO:TX:a:t=|	!	!	!	!	!	!	!LO:TX:a:t=|	!	!	!	!	!	!	!	!	!	!	!	!
12B-\	.	.	.	.	.	.	12B-\	.	.	.	.	.	.	.	.	12ee-\	.	12gg\	.
!LO:TX:a:t=|	!	!	!	!	!	!	!LO:TX:a:t=|	!	!	!	!	!	!	!	!	!	!	!	!
12G\J	.	.	.	.	.	.	12G\J	.	.	.	.	.	.	.	.	12gg\J	.	12bb-\J)	.
!	!	!	!	!	!	!	!LO:LB:g=original	!	!	!	!	!	!	!	!	!	!	!	!
12B-\L	7	4BB-/	4ff\	4aa-\	4ff\	4aa-\	12B-\L	7	.	4d/ 4b-/ 4aa-/	.	4d/ 4b-/ 4aa-/	.	4ff\	4aa-\	12ff\L	.	12aa-\L	.
!	!	!	!	!	!	!	!LO:TX:a:t=|	!	!	!	!	!	!	!	!	!	!	!	!
(12B-\	.	.	.	.	.	.	12B-\	.	.	.	.	.	.	.	.	12dd\	.	12ff\	.
!	!	!	!	!	!	!	!LO:TX:a:t=|	!	!	!	!	!	!	!	!	!	!	!	!
12B-\J)	.	.	.	.	.	.	12B-\J	.	.	.	.	.	.	.	.	12ff\J	.	12aa-\J	.
!	!	!	!LO:LB:g=original	!	!	!	!	!	!	!	!	!	!	!	!	!	!	!	!
=56	=56	=56	=56	=56	=56	=56	=56	=56	=56	=56	=56	=56	=56	=56	=56	=56	=56	=56	=56
4r	.	4r	4ee-\	4gg\	4ee-\	4gg\	4r	.	.	2B-/ 2e-/ 2b-/ 2gg/	.	2B-/ 2e-/ 2b-/ 2gg/	.	4ee-\	4gg\	(16ee-\LL	.	(16gg\LL	.
.	.	.	.	.	.	.	.	.	.	.	.	.	.	.	.	16ff\	.	16aa-\)	.
!	!	!	!	!	!	!	!	!	!	!	!	!	!	!	!	!	!	!LO:TX:a:t=|	!
.	.	.	.	.	.	.	.	.	.	.	.	.	.	.	.	16gg\)	.	16bb-\	.
!	!	!	!	!	!	!	!	!	!	!	!	!	!	!	!	!	!	!LO:TX:a:t=|	!
.	.	.	.	.	.	.	.	.	.	.	.	.	.	.	.	16aa-\JJ	.	16ccc\JJ	.
!LO:TX:a:t=|	!	!	!	!	!	!	!LO:TX:a:t=|	!	!	!	!	!	!	!	!	!	!	!	!
.	.	.	.	.	.	.	.	.	.	.	.	.	.	.	.	8qqaa-/	.	8qqccc/	.
12E-\L	.	4E-/	4r	4r	4r	4r	12E-\L	.	.	.	.	.	.	4r	4r	4gg\	.	4bb-\	.
!LO:TX:a:t=|	!	!	!	!	!	!	!LO:TX:a:t=|	!	!	!	!	!	!	!	!	!	!	!	!
12G\	.	.	.	.	.	.	12G\	.	.	.	.	.	.	.	.	.	.	.	.
!LO:TX:a:t=|	!	!	!	!	!	!	!LO:TX:a:t=|	!	!	!	!	!	!	!	!	!	!	!	!
12B-\J	.	.	.	.	.	.	12B-\J	.	.	.	.	.	.	.	.	.	.	.	.
!	!	!	!	!	!	!	!LO:TX:a:t=|	!	!	!	!	!	!	!	!	!	!	!LO:TX:a:t=|	!
12e-\L	.	4E-/	4gg\	4bb-\	4gg\	4bb-\	12e-\L	.	.	4r	.	4r	.	4gg\	4bb-\	12gg\L	.	12bb-\L	.
!	!	!	!	!	!	!	!LO:TX:a:t=|	!	!	!	!	!	!	!	!	!	!	!LO:TX:a:t=|	!
12B-\	.	.	.	.	.	.	12B-\	.	.	.	.	.	.	.	.	12ee-\	.	12gg\	.
!	!	!	!	!	!	!	!LO:TX:a:t=|	!	!	!	!	!	!	!	!	!	!	!LO:TX:a:t=|	!
12G\J	.	.	.	.	.	.	12G\J	.	.	.	.	.	.	.	.	12gg\J	.	12bb-\J	.
!	!	!	!	!	!	!	!	!	!	!	!	!	!	!	!	!	!	!LO:TX:a:t=|	!
12B-\L	7	4BB-/	4ff\	4aa-\	4ff\	4aa-\	12B-\L	7	.	4d/ 4b-/ 4aa-/	.	4d/ 4b-/ 4aa-/	.	4ff\	4aa-\	12ff\L	.	12aa-\L	.
!	!	!	!	!	!	!	!LO:TX:a:t=|	!	!	!	!	!	!	!	!	!	!	!LO:TX:a:t=|	!
12B-\	.	.	.	.	.	.	12B-\	.	.	.	.	.	.	.	.	12dd\	.	12ff\	.
!	!	!	!	!	!	!	!LO:TX:a:t=|	!	!	!	!	!	!	!	!	!	!	!LO:TX:a:t=|	!
12B-\J	.	.	.	.	.	.	12B-\J	.	.	.	.	.	.	.	.	12ff\J	.	12aa-\J	.
!LO:LB:g=original	!	!	!	!LO:LB:g=original	!LO:LB:g=original	!LO:LB:g=original	!	!	!	!LO:LB:g=original	!	!	!	!	!	!	!	!	!
=57	=57	=57	=57	=57	=57	=57	=57	=57	=57	=57	=57	=57	=57	=57	=57	=57	=57	=57	=57
4r	.	4r	4ee-\	4gg\	4b-\	4gg\	4r	.	.	4G/ 4e-/ 4b-/ 4gg/	.	4G/ 4e-/ 4b-/ 4gg/	.	4ee-\	4gg\	4gg\	.	4gg\	.
*	*	*	*	*	*	*	*	*	*	*Xtuplet	*	*Xtuplet	*	*	*	*	*	*	*
!	!	!	!	!	!	!	!LO:TX:a:t=|	!	!	!LO:TX:b:t=|	!	!LO:TX:b:t=|	!	!	!	!LO:TX:b:t=|	!	!LO:TX:b:t=|	!
12E-\L	.	4E-/	2g/	2ee-\	2g/	2ee-\	12E-\L	.	.	12e-/L	.	12e-/L	.	2g/	2ee-\	12e-/L	.	12e-/L	.
!	!	!	!	!	!	!	!LO:TX:a:t=|	!	!	!LO:TX:b:t=|	!	!LO:TX:b:t=|	!	!	!	!LO:TX:b:t=|	!	!LO:TX:b:t=|	!
12G\	.	.	.	.	.	.	12G\	.	.	12g/	.	12g/	.	.	.	12g/	.	12g/	.
!	!	!	!	!	!	!	!LO:TX:a:t=|	!	!	!LO:TX:b:t=|	!	!LO:TX:b:t=|	!	!	!	!LO:TX:b:t=|	!	!LO:TX:b:t=|	!
12B-\J	.	.	.	.	.	.	12B-\J	.	.	12b-/J	.	12b-/J	.	.	.	12b-/J	.	12b-/J	.
!	!	!	!	!	!	!	!	!	!	!	!	!	!	!	!	!LO:LB;g=original	!	!LO:LB:g=original	!
!	!	!	!	!	!	!	!LO:TX:a:t=|	!	!	!LO:TX:a:t=|	!	!LO:TX:a:t=|	!	!	!	!LO:TX:a:t=|	!	!LO:TX:a:t=|	!
12e-\L	.	4E-/	.	.	.	.	12e-\L	.	.	12ee-\L	.	12ee-\L	.	.	.	12ee-\L	.	12ee-\L	.
!	!	!	!	!	!	!	!LO:TX:a:t=|	!	!	!LO:TX:a:t=|	!	!LO:TX:a:t=|	!	!	!	!LO:TX:a:t=|	!	!LO:TX:a:t=|	!
12B-\	.	.	.	.	.	.	12B-\	.	.	12b-\	.	12b-\	.	.	.	12b-\	.	12b-\	.
!	!	!	!	!	!	!	!LO:TX:a:t=|	!	!	!LO:TX:a:t=|	!	!LO:TX:a:t=|	!	!	!	!LO:TX:a:t=|	!	!LO:TX:a:t=|	!
12G\J	.	.	.	.	.	.	12G\J	.	.	12g\J	.	12g\J	.	.	.	12g\J	.	12g\J	.
!LO:TX:a:t=P:problem:mixed beam	!	!	!	!	!	!	!LO:TX:a:t=P:problem:mixed beam	!	!	!LO:TX:a:t=|	!	!LO:TX:a:t=P:problem:mixed beam	!	!	!	!	!	!LO:TX:a:t=P:problem:mixed beam	!
8B-\L	7	4BB-/	4b-/	4ff\	8f/L	8dd\L	8.B-\L	.	.	(12d\L	.	(12d/L	.	4g/	4ff\	8.d/L	.	8.f/L	.
!	!	!	!	!	!	!	!	!	!	!	!	!LO:TX:b:t=|	!	!	!	!	!	!	!
.	.	.	.	.	.	.	.	.	.	12b-\)	.	12b-\)	.	.	.	.	.	.	.
8BB-/Jk	.	.	.	.	8a-/J	8ff\J	.	.	.	.	.	.	.	.	.	.	.	.	.
!	!	!	!	!	!	!	!	!	!	!LO:TX:a:t=|	!	!LO:TX:a:t=|	!	!	!	!	!	!	!
.	.	.	.	.	.	.	.	.	.	12ff\J	.	12aa-\J	.	.	.	.	.	.	.
.	.	.	.	.	.	.	16BB-/Jk	.	.	.	.	.	.	.	.	16f/Jk	.	16dd\Jk	.
=58	=58	=58	=58	=58	=58	=58	=58	=58	=58	=58	=58	=58	=58	=58	=58	=58	=58	=58	=58
.	.	.	.	.	8qqa-/	8qqff/	.	.	.	.	.	.	.	.	.	8qqf/	.	8qqdd/	.
2E-\	.	2E-/	2g/	2ee-\	2g/	2ee-\	2E-\	.	.	2G/ 2e-/ 2b-/ 2gg/	.	2B-/ 2e-/ 2b-/ 2gg/	.	2g/	2ee-\	2g/	.	2ee-\	.
2r	.	2r	2r	2r	2r	2r	2r	.	.	2r	.	2r	.	2r	2r	2r	.	2r	.
==	==	==	==	==	==	==	==	==	==	==	==	==	==	==	==	==	==	==	==
*-	*-	*-	*-	*-	*-	*-	*-	*-	*-	*-	*-	*-	*-	*-	*-	*-	*-	*-	*-
!!!system-decoration: [(s1,s2,s3,s4,s5,s6,s7)][(s8,s9,s10,s11,s12,s13)]
!!!RDF**dynam: p = p:
!!!RDF**dynam: f = f:
!!!RDF**dynam: fp = f:p:
!!!RDF**kern: > = above
!!!RDF**kern: < = below
!!!ENC: Berenika Jozajtis
!!!END: 2022-04-06
!!!ENC: Leszek Kubiak
!!!END: 2022-04-11
